Tiga002/pyrobot-rl/dataset/dataset_test.csv
feasible,current_joint_1,current_joint_2,current_joint_3,current_joint_4,current_joint_5,joint_1_action,Joint_2_action,Joint_3_action,Joint_4_action
1,0.000005071,0.0003500969,0.0013049861,-0.0001431571,2.28319981943059E-06,-0.1087668315,0.0842753276,-0.0509271808,-0.0880487785
1,-0.0122203138,0.0282666627,0.0102471719,0.0349612422,0.0005179393,0.2654542327,-0.3166568875,0.148993507,-0.2186193615
1,-0.0046729026,0.0154267512,0.0222505946,-0.013218944,-0.001974981,-0.1812810451,0.0403258689,0.2110144198,-0.0929325521
1,0.0096682385,0.0004378219,0.0360812098,-0.0370796844,0.0007386795,0.1259825528,-0.186200127,0.054670155,0.0196731798
1,0.0026677526,-0.0024932432,0.0563264377,-0.0126625979,-0.0015936376,0.588247776,0.5947372317,0.7353461981,-0.20684807
1,0.1290666759,0.142891556,0.225375995,-0.0538469888,-0.001134068,0.0040586102,-0.6913545728,0.401938796,0.1742632389
1,0.1337562799,0.0159820896,0.3247382939,-0.0069245491,-0.0001962329,-0.1431010664,0.1877114624,-0.0068759662,0.1393948793
1,0.1221584007,0.0122257555,0.3196129501,0.0167527646,0.0010897544,-0.2529830039,-0.026371289,0.0376772471,-0.277893126
1,0.0980302915,0.0250908304,0.3332489133,0.0144456234,0.0023912424,-0.1443685889,-0.2256599218,0.1645309776,0.1444339454
1,0.0780018717,0.0073868176,0.345861733,0.0093865888,0.0018786661,-0.3019970059,0.8972660303,0.6712967753,0.7059493065
1,0.0038745238,0.1963277459,0.4999386668,0.1967073381,0.0006262943,-0.1000632495,0.0656269342,-0.1463651359,-0.1430180967
1,-0.0050479234,0.2219255865,0.5030139685,0.1884809583,0.0005704974,0.3937211633,0.5726261735,0.2515622973,0.3677358925
1,0.0493506603,0.3240845501,0.5421899557,0.2608247995,0.0003532035,0.1122407317,0.2096382529,0.095051989,-0.0131856557
1,0.0701906607,0.3690950871,0.5632542968,0.2613935173,0.0012426098,-0.5375324488,-0.2452781647,-0.1146154478,0.3888860941
1,-0.0408025458,0.3165118098,0.5408412218,0.359975338,0.0006442255,-0.2074915916,0.8021326065,0.5691315532,-0.4705934227
1,-0.0927247852,0.5088666677,0.6713619828,0.2465374619,0.0001086787,0.0072278711,0.2022730112,-0.2197425514,-0.2270423323
1,-0.0912883803,0.5352287292,0.6623434424,0.2264691889,-0.0001454128,-0.0351114087,-0.0985179171,-0.2824305594,0.3889196515
1,-0.0993782803,0.5228326917,0.6097243428,0.3261821866,-0.0003281612,-0.1665873826,0.1058782935,0.0904661343,-0.1383327544
1,-0.1055721268,0.5256329179,0.6102752686,0.2965130806,0.0015774618,-0.4489866793,-0.0509520248,-0.3178653717,-0.362224102
1,-0.1845305711,0.5232129693,0.559099853,0.2018519193,0.0016362859,0.0958984941,0.1973548681,-0.1036328301,-0.1329604983
1,-0.1930537969,0.534870863,0.5472300649,0.1668657064,-0.00162489,0.2756671906,-0.0948025361,-0.2037361115,-0.1607019454
1,-0.1794977784,0.5511238575,0.5411235094,0.1736239344,-0.0047143763,-0.0947774947,0.0929143652,-0.247358501,-0.0348198228
1,-0.1621727943,0.5452849865,0.5161463022,0.1507609487,-0.0015608796,0.190492928,-0.2867955267,0.3905418813,-0.3060910404
1,-0.1276186705,0.5006281734,0.5853319764,0.0751741305,-0.0010774445,0.3815368712,0.3925263584,-0.4172433019,0.2434590757
1,-0.0600127429,0.5775727034,0.5292722583,0.1403280497,-0.0011235509,-0.2999491394,-0.1156702787,0.1722390652,-0.3671230078
1,-0.1117189303,0.5600805283,0.5597215891,0.049177561,-0.0011006251,-0.1559798568,-0.1804253012,-0.1983239353,-0.2753992677
1,-0.1372516006,0.5536067486,0.5646921992,0.0564223044,-0.0011274522,-0.0587463938,0.1772352755,-0.0550478064,-0.1654029936
1,-0.1487046629,0.554172039,0.5423596501,0.0020158058,-0.0015070352,-0.0074131344,0.3663341403,-0.0632261187,-0.2513377964
1,-0.1507738084,0.6390507817,0.5354843736,-0.0585191287,-0.0016529207,-0.4528905153,-0.3728084564,-0.3698250055,-0.4788185656
1,-0.2511700094,0.5599781871,0.454603672,-0.180378288,-0.0023871893,0.9383745193,-0.0599095412,-0.6705574393,0.954282105
1,-0.0472641103,0.5531020761,0.2946659923,0.0606800131,-0.0020587437,-0.3017933071,0.1162915528,-0.1344355494,-0.2942728698
1,-0.0336324163,0.5599542856,0.289142698,0.0451639481,0.0037227238,-0.211709559,-0.0475433841,-0.4617007971,-0.2865928411
1,-0.079381451,0.5582394004,0.2092034668,-0.0275888089,0.003438592,0.2218942195,-0.1026239246,-0.3107229173,-0.1185529977
1,-0.0806309283,0.5552182198,0.1902196258,-0.0251219198,-3.54517433152068E-05,-0.6800687313,0.119957082,0.7155131698,0.9680401683
1,-0.2356501669,0.5955687165,0.3645610213,0.2190232873,-0.0015005223,-0.17985636,0.0624994971,0.1117601693,0.1401723921
1,-0.2508057654,0.5984094143,0.3696931601,0.2272662222,-0.001358432,0.0524533577,0.2123192847,0.1407007426,-0.3001075089
1,-0.2466969937,0.6527177095,0.4022305608,0.1550225466,-0.0017346942,-0.1122100204,-0.1161146909,0.1042128205,-0.1323123723
1,-0.245438695,0.6529615521,0.4123010337,0.1386802793,0.0002634749,0.5928794742,0.5439102054,-0.4152009785,-0.4794659317
1,-0.1500292569,0.7637658119,0.3201464117,0.014757907,0.0039232695,-0.0106682433,-0.0591566488,0.0781458467,-0.0998681337
1,-0.1358479261,0.7607631683,0.3211104572,-0.0088936072,0.0082343733,-0.0170532931,-0.1021675095,0.0544859357,-0.1154525429
1,-0.1396654397,0.7491277456,0.3269226551,-0.0382769331,0.0084439451,0.2228090912,-0.322196424,-0.3771026731,-0.1911066622
1,-0.0852811635,0.6778689027,0.24333781,-0.0841650888,0.0086294534,0.013508887,0.0843879431,0.1371016353,-0.4141288102
1,-0.081384562,0.7029429674,0.2707583606,-0.1832151264,0.008766843,0.374347508,-0.5264095068,0.0459860042,-0.094692722
1,-0.0162723158,0.6358966827,0.2852962017,-0.2043799013,0.0086486889,-0.0158092342,0.1970853955,-0.2902141511,-0.9475852847
1,-0.0148343546,0.6849076748,0.2315087169,-0.4059058726,0.0090026846,0.8162599802,0.5327801704,0.2282477766,-0.7417018414
1,0.1857364327,0.8271998763,0.2920707762,-0.5877683759,0.0104159387,-0.7168124318,-0.5304031968,0.0309016276,-0.7142662406
1,0.0737392008,0.7207508087,0.3021383584,-0.7371393442,0.0107354969,-0.3050045669,0.2946798801,0.2176647633,-0.4934163094
1,0.0053587328,0.7825312614,0.3422531784,-0.8509706259,0.0093152309,-0.3615929782,0.0612341724,0.969350934,-0.6935299039
0,-0.0837622881,0.8078462481,0.5549035668,-1.0199710131,0.0081304526,-0.5276502371,0.7117676139,0.7143077254,0.565702498
1,-0.215206176,0.9759616256,0.7271069288,-1.2010564804,0.0042099878,-0.5988843441,0.252263099,0.134959802,-0.698359251
1,5.14992871103459E-06,0.0002481341,0.001067805,-0.0001105082,1.74611409420322E-06,-0.0986362025,-0.2086461484,-0.2882017195,0.094668828
1,-0.0048179617,0.0094942339,0.0055841655,0.1120401323,0.0010612074,-0.0805080608,0.2417152673,-0.1429364532,0.2888673246
1,-0.016157791,-0.0001675681,-0.0185869262,0.1027503684,0.0009975322,0.6326669455,-0.302426368,0.9514123201,0.0133971823
1,0.1005150974,-0.0630121008,0.2019498199,0.1104402766,0.0007725426,-0.7793823481,-0.407540977,0.2628245056,-0.7201167345
1,-0.0723045915,-0.1590446234,0.2720709741,-0.0656383112,-0.0003547147,-0.0998053849,0.1231786907,-0.8518801332,-0.2583038509
1,-0.0974881649,-0.1238079742,0.1021923572,-0.1279568523,-0.0004457995,-0.1035186425,0.1106423661,-0.4218215048,-0.1556538343
1,-0.118635498,-0.0969577953,0.0320417918,-0.1637025476,-0.0007186562,0.5702379346,-0.6427413225,0.6044170856,0.2901376784
1,0.0071593551,-0.2319483757,0.1756257117,-0.0886910856,0.0003425348,-0.1081357449,-0.27271837,-0.1630981266,-0.1779919416
1,0.0098167164,-0.25095281,0.1756440401,-0.088374041,0.003423641,-0.2389801443,-0.7126816511,-0.1931055784,-0.0006225845
1,-0.0493371263,-0.4082347155,0.1349517852,-0.0881357193,0.0030331837,-0.5563057661,0.0060152942,-0.8959103823,0.0846964791
1,-0.1844016016,-0.4052138627,-0.0573652573,-0.065717794,0.0023812065,0.0953270271,-0.1664140075,-0.5868880153,0.178843677
1,-0.1618226469,-0.4451362491,-0.1769851744,-0.0208989717,0.00248888,-0.107778728,-0.1698859781,-0.6060530543,0.4033136368
1,-0.1840886176,-0.4780512452,-0.2710549831,0.0739502907,0.0021321417,-0.1061935499,-0.061075002,-0.3250516355,0.457266748
1,-0.2061534375,-0.4941315353,-0.3198352158,0.1971173733,0.0019753301,-0.8358927369,0.0658483133,0.4895525277,0.5575546026
1,-0.3762509525,-0.4712589979,-0.1842492372,0.3510147929,0.0019541823,-0.0985176116,0.2316086292,-0.1993209124,-0.0069428016
1,-0.3966527283,-0.429623127,-0.1986612082,0.3623513281,0.0015463769,0.3733408749,-0.2492495328,0.9774766564,-0.476185739
1,-0.3112620413,-0.4847876132,0.0247189514,0.2507700622,0.0022146651,0.4390303195,0.7627407312,-0.0170970038,0.6265733838
1,-0.2061980963,-0.3072096705,0.0345566981,0.4182462096,0.0030281551,-0.2213575393,-0.3277477026,-0.2746576071,0.0783097371
1,-0.2136806846,-0.3069719672,0.0291643459,0.4547176659,0.0060971477,0.015222365,-0.6915386915,-0.3399977684,0.0974375606
1,-0.2136372775,-0.4437263906,-0.0252428688,0.4810493588,0.0058627594,0.2767050862,0.3268652558,-0.4531431198,-0.2944060266
1,-0.1638698429,-0.3947683275,-0.1054782122,0.4041046202,0.0067938142,0.143439427,0.0684927925,-0.4015832245,-0.0661371723
1,-0.1309472024,-0.3718247712,-0.1602188349,0.3999257088,0.0072526997,0.1301715672,-0.1225249469,-0.4389944971,-0.1089268327
1,-0.0989668369,-0.4008057117,-0.2309516668,0.3847216666,0.0075156754,-0.4746136665,0.8257305026,0.43348822,0.2868645191
1,-0.2055024952,-0.2126905769,-0.1139307618,0.4762351513,0.0073276204,0.0456228666,-0.1332522631,-0.3322986662,0.3300104737
1,-0.2024775147,-0.2089476585,-0.1239498779,0.5839871764,0.0071365042,-0.2324344963,-0.0271257162,0.3434762657,0.48797822
1,-0.2592336237,-0.2093354017,-0.0344113819,0.714999795,0.00698352,0.033684019,-0.3033353686,0.1386986524,0.2078922689
1,-0.2541898787,-0.2332429886,-0.013132548,0.7757681012,0.0063633164,-0.053972058,-0.3677377105,-0.1260561049,0.3071313798
1,-0.258143723,-0.2646429837,-0.0079439236,0.818246901,0.0068093627,0.1497969776,0.1820591688,-0.4731938541,-0.1004158258
1,-0.2270731926,-0.2296929657,-0.0849676356,0.7956520915,0.0068860478,0.290289104,-0.2603716254,-0.1594750881,0.0973500907
1,-0.2022798061,-0.235043332,-0.0925027505,0.839351356,0.0050842813,-0.156269446,-0.10434971,-0.5303484201,-0.0706372634
1,-0.2264181972,-0.2595898211,-0.1656199396,0.8289928436,0.0045673954,-0.2511183619,0.1285304874,-0.9801329374,-0.7295643687
1,-0.2878702581,-0.225369364,-0.3672851324,0.6408418417,0.0047979522,-0.1671847999,-0.089862138,-0.4875600636,0.5098323822
1,-0.3221414387,-0.2411935776,-0.4163852334,0.778619051,0.0048954752,0.0614094213,0.1185355857,-0.3510394394,-0.3640339375
1,-0.3090830743,-0.2150263488,-0.4325291216,0.6922562718,0.0047729732,-0.2745725214,-0.2280078232,-0.2902851403,0.286411643
1,-0.3121918738,-0.2105906308,-0.436116159,0.7182475328,0.0071078152,-0.0885891095,-0.3223071694,-0.0262490902,0.069982633
1,-0.3313307464,-0.2478705645,-0.4194097221,0.7775723934,0.0062693073,-0.1242228746,-0.3040178418,-0.2897750735,0.1654254943
1,-0.3422288299,-0.2761745453,-0.4185830951,0.7868905663,0.0063551543,0.0622821078,-0.452588588,-0.1172901914,0.4190953374
1,-0.3285714388,-0.3852950335,-0.3937961757,0.9010068178,0.0061491397,0.5829305053,0.894646287,-0.9492455721,-0.6128457189
1,-0.202403143,-0.1914414614,-0.585183382,0.7362375259,0.0072702174,-0.2681533694,-0.4809694886,-0.447031498,-0.114031598
1,-0.2685863674,-0.3098095953,-0.6682719588,0.7278077602,0.0076392987,-0.3427540064,-0.2933584154,-0.1296685487,0.0754603669
0,-0.2919086814,-0.3353929818,-0.6550315022,0.7440391779,0.0081932954,-0.444761157,0.0155565925,-0.3552517295,-0.243600592
1,-0.4029362798,-0.329821527,-0.6254272461,0.6982078552,0.0078460518,-0.4059065878,0.0653060153,-0.1433548331,-0.1388516277
1,-0.4960142076,-0.3101588488,-0.568777442,0.678141892,0.0066780881,0.8676649928,0.6740014553,0.7807728052,0.3609077334
1,-0.3221788406,-0.1455834508,-0.3591614962,0.8116511703,0.0074200551,-0.6008247733,-0.5770254135,-0.4365231991,0.108382836
1,-0.4653269053,-0.2806152403,-0.4029351473,0.8529623747,0.0072039547,-0.3064703047,-0.3141622841,-0.203221947,0.1878450215
1,-0.4768873155,-0.287577033,-0.3965704143,0.8649825454,0.0091486098,-0.0609624609,0.2192734331,-0.376526624,0.1807166487
1,-0.495485872,-0.2493190169,-0.5041450858,0.9097290039,0.0073250602,0.2432905585,0.0443782583,-0.2132067382,0.4088784456
1,-0.4390169382,-0.2323210388,-0.4892856479,1.0279710293,0.0083235046,-0.0699639171,-0.4105525017,-0.3269046247,0.1068651453
1,-0.4545739591,-0.3168335855,-0.49856022,1.055664897,0.0089164618,0.6154581308,-0.0067045796,-0.0516567528,-0.107685186
1,-0.3120955229,-0.3130622208,-0.4505102038,1.0426292419,0.0101115676,-0.1218811572,-0.1681343317,-0.5693908334,-0.0741008669
1,6.69721612212015E-06,0.0003278849,0.0012297878,-0.0001343999,2.34974345403316E-06,-0.1901217252,0.0360811427,-0.2054184675,-0.1765349656
1,-0.0080170538,0.0194373,0.0039826524,0.0706705898,0.0020613756,0.7089058757,-0.9214935899,-0.0476892814,-0.7407525182
1,0.1526886076,-0.1568105519,-0.0013918782,-0.1115631759,0.0032736014,0.7151983976,0.381888628,-0.6840393543,-0.6451889873
1,0.2871504128,-0.0657930374,-0.1384435147,-0.2676801085,0.0031828338,0.126379624,0.3614854813,-0.1432311088,0.293628782
1,0.3125941753,-0.0421052203,-0.1604222953,-0.2518449128,0.0044265301,-0.4373144209,0.0054735481,-0.0616120622,-0.1273345798
1,0.2498448342,-0.0310255494,-0.1655610651,-0.280931741,0.0048395973,0.848952055,-0.7051630616,0.5925325155,-0.9286046624
1,0.4433333874,-0.197312668,-0.0184202045,-0.5133510232,0.006222757,-0.1581760198,0.3556635082,0.1766853034,-0.228861019
1,0.414562434,-0.1305325031,0.0169862062,-0.5665485263,0.0065476573,-0.0917606354,0.3973535001,0.3035278022,-0.0387778953
1,0.390810132,-0.0256603546,0.0934958756,-0.570530653,0.0060314215,-0.2314993888,-0.0192381144,0.1082077473,-0.067521885
1,0.3794155419,-0.0239318628,0.1039134562,-0.5846005082,0.0078073274,-0.2131290436,0.4330187738,0.1000521109,0.1518972218
1,0.3325577974,0.0542386249,0.1260789037,-0.5404759049,0.0072839251,0.6992473602,-0.4608386159,0.3219491243,0.0545306765
1,0.4770399034,-0.0473488979,0.207479462,-0.5267934203,0.0075956932,-0.1129176244,0.0057926858,-0.0063924626,-0.1132209823
1,0.4863831997,-0.0491935611,0.2083879858,-0.5445640683,0.0112201571,-0.7196756601,0.767598033,-0.9876473546,0.1995214671
1,0.3181939423,0.148122862,0.0020349794,-0.4905478954,0.0099152038,-0.0719108582,0.0619510561,-0.0669880956,0.1227376014
1,0.3051207066,0.1523386836,-0.0097512808,-0.4834101498,0.0093266899,-0.0140967034,0.1859622747,0.1376092881,-0.4346125424
1,0.3002637029,0.2011037618,0.0214187745,-0.5781769156,0.0089874947,-0.2901934981,0.0886677578,0.0341133177,-0.2735177279
1,0.2885534465,0.2143108845,0.0312802829,-0.6198104024,0.0114721293,-0.263166219,0.1286631227,-0.0500814989,0.1970196664
1,0.2580041587,0.227807954,0.0288347024,-0.6319922209,0.0126402825,-0.7016325593,0.4513192177,-0.9026180506,0.9590234756
1,0.1158216149,0.3493233323,-0.1500138938,-0.388463527,0.0122784143,0.2227144688,0.1052268818,-0.8813701868,0.8746344447
1,0.1721667945,0.3834504485,-0.3435686529,-0.1659733951,0.0128429066,0.466573596,-0.290182054,-0.3861438036,-0.5465824604
1,0.2793760896,0.3154558241,-0.4278123081,-0.3029767871,0.0138088008,-0.9303016663,0.9092080593,0.078552708,-0.419810921
1,0.0951664597,0.5536948442,-0.3970933855,-0.4013777673,0.0138236936,-0.1660411209,0.149736017,0.2470345348,-0.0892580897
1,0.0683367103,0.5609447956,-0.3881704509,-0.4310759008,0.0124865202,-0.085270144,-0.1025481075,-0.040209543,0.0297355931
1,0.0449463092,0.5588525534,-0.379303515,-0.4222900867,0.0115372334,0.0129517857,0.241438821,0.224188298,-0.2096920162
1,0.044720646,0.5541995168,-0.3793993294,-0.4675248861,0.0108144525,0.0931170806,0.1680741012,0.0278536696,-0.1313097179
1,0.0500557125,0.5960962176,-0.3575996161,-0.4758194983,0.0094632907,-0.3839582205,0.039773766,0.1453108042,-0.2354961336
1,-0.025915755,0.6175320745,-0.3203097582,-0.530364275,0.0094066625,0.801884532,0.6211451888,-0.3132743239,0.2552381158
1,0.1371626705,0.7851996422,-0.3866057098,-0.4621320665,0.0093516568,-0.2957128584,0.3527241349,-0.3055600226,0.0094007235
1,0.1529263556,0.8022277951,-0.4082230031,-0.4627605975,0.0144969104,0.5942906737,0.9797456861,-0.6097127199,0.6188079715
1,0.2688470781,1.0571078062,-0.5247499943,-0.3026588857,0.0145089412,-0.2656778097,-0.0503716618,-0.5857463479,0.0245665349
1,0.2316443026,1.0582330227,-0.6017727256,-0.2931060493,0.014902452,-0.0679163486,0.1175033227,-0.041850362,0.0098930541
1,0.2111933678,1.0686075687,-0.6169746518,-0.2901262343,0.0137793599,-0.3948426247,0.6238895059,-0.0382612795,0.3530903459
1,0.1517513841,1.198708415,-0.6031040549,-0.1933349222,0.0149988839,-0.6222417951,0.7622339129,0.4745479822,0.0529505871
1,0.0249008853,1.2523235083,-0.511323452,-0.1870714873,0.0099887745,-0.4952448308,0.0853855386,0.3161675334,0.1400463581
1,-0.0723751485,1.2450824976,-0.4681515098,-0.2434319556,-0.0065630786,-0.8933386207,-0.6669276953,-0.5931389332,0.1034826711
1,-0.2771137655,1.0830681324,-0.615735352,-0.2199856639,-0.0072875903,-0.1387416571,0.3961568773,0.0550202876,0.122995846
1,-0.3165034354,1.1765471697,-0.5841232538,-0.172715053,-0.0087922337,-0.4225863814,0.0064375983,-0.2692674994,0.0135452785
1,-0.3867872953,1.1922063828,-0.5959549546,-0.1638312638,-0.0085743684,-0.3444010913,0.1369700283,0.1260016263,-0.2722452283
1,-0.4138462842,1.1989402771,-0.5898116231,-0.2122516185,-0.007974267,-0.3701640964,0.4175101519,-0.016603047,-0.1353369653
1,-0.4559771717,1.2295851707,-0.5764898062,-0.2434732467,-0.0071696318,0.1677669287,-0.1127215251,0.0403492637,0.0742061213
1,-0.473680377,1.2379363775,-0.5589268208,-0.2060592622,-0.0116312113,-0.3201808929,0.186660096,-0.0199123472,-0.3671095669
1,-0.5283424258,1.2570492029,-0.5394166112,-0.2945126891,-0.0115673123,-0.2448645532,-0.139779374,0.0707221553,-0.0620054379
1,-0.5642793179,1.2479168177,-0.5192883015,-0.3069594502,-0.0118330056,-0.163383022,-0.0501433238,0.0517697558,-0.1712915748
1,-0.5812998414,1.2456704378,-0.5123080015,-0.3283735514,-0.0120443227,0.1196810454,-0.1531997472,-0.87350595,-0.4895048141
1,-0.5527238846,1.2144938707,-0.7151551843,-0.452227056,-0.0116708549,-0.1012997031,-0.0221160091,0.0023028012,-0.3275067508
1,-0.5550478697,1.2129468918,-0.7236310244,-0.483409971,-0.0102144275,0.0242645089,0.834467113,-0.5263952613,-0.6393492818
1,-0.5498796105,1.2591767311,-0.7815931439,-0.640407145,-0.010112443,-0.4478972554,0.1624374688,0.3442973197,-0.1239847839
1,-0.6157409549,1.2615410089,-0.6937738657,-0.664609313,-0.0095455144,0.716252327,-0.0200942438,-0.1558889598,-0.8993866444
1,-0.4414692521,1.2622122765,-0.6883351803,-0.8853022456,-0.008523128,-0.9953311682,-0.5910711884,0.0409710109,0.2575492263
1,-0.6616229415,1.1262831688,-0.6447024345,-0.8167021871,-0.0088228816,0.1008864343,0.0877769291,-0.0012366561,-0.2817492187
1,6.90780234435806E-06,0.000200852,0.0009347826,-9.40496247494593E-05,1.27457576581946E-06,0.3929236829,0.8633052707,0.5690819621,0.2754389048
1,0.097050406,0.2237290591,0.1481914669,0.0743977651,0.00029469,-0.0754854754,0.792506516,0.0220514517,0.7069256306
1,0.0788345188,0.4181057215,0.1633490026,0.2587423027,-3.12342745019123E-05,0.117020674,0.478549242,-0.1645125747,0.0450632945
1,0.1009241417,0.5136888623,0.1372634619,0.2760495245,-3.63907820428722E-05,-0.2370771617,-0.7677292824,0.9038851857,-0.7777132988
1,0.0414728746,0.3598173857,0.3597296178,0.0846338719,-0.0003173747,0.3062008917,0.9371352196,0.1967242807,0.1673884243
1,0.1173261702,0.5847555399,0.4126285017,0.1331028938,0.0003966916,0.1653749049,0.1376560032,-0.3046765625,0.0876956508
1,0.1213883758,0.6011078954,0.4055572748,0.1481790245,-0.0019072351,-0.315700531,-0.2012448609,-0.3735294938,0.0417099595
1,0.1160086766,0.5986357927,0.3661835194,0.1667650044,0.000594145,-0.1437681019,0.4706788659,-0.4066988826,0.3058872223
1,0.0762920901,0.6660358906,0.2834268808,0.2445761561,6.65453408146277E-05,0.1429208219,0.0319022201,0.0890672654,0.0048951181
1,0.0873090774,0.691622138,0.2930759788,0.2541080117,-0.0014525823,0.259295553,0.4717549086,0.0556912199,0.4146919549
1,0.150725767,0.7760308981,0.2871486843,0.292536974,0.0027322406,-0.0603211522,0.2723185122,-0.3944749236,0.1171300113
1,0.1359980702,0.8111119866,0.1843468249,0.3019160926,0.0047652782,-0.6458391547,0.0566951707,-0.0424632914,0.1705846786
1,0.0304240584,0.7931905985,0.1616260558,0.3454209864,0.0014092741,0.0865425244,-0.9358861446,0.6359759569,-0.0990692452
1,0.0550229512,0.5926899314,0.3177593946,0.3214673698,0.0023729075,-0.0888245404,-0.0216032472,-0.5443348885,0.1160073578
1,0.032806538,0.5942422152,0.2052440494,0.3517374694,0.0021055592,0.2046476901,0.3805319965,-0.0571387149,-0.5497728586
1,0.0716025755,0.6756849289,0.1959291399,0.2192161679,0.0024544911,0.1383680403,0.0594032146,0.0913188756,-0.3916299343
1,0.1028723121,0.6986136436,0.2167096138,0.12291722,0.0031966749,-0.5033808351,-0.0496893376,-0.8841837645,-0.2007463276
1,-0.0134098465,0.6943371892,0.0378748477,0.0734543204,0.0021467325,0.0565739498,-0.1527681053,-0.6075494289,0.3496023118
1,-0.0071610054,0.6721994281,-0.0592496954,0.1593420506,0.0020570864,-0.2673096657,-0.2097962648,0.0777459517,0.0556433648
1,-0.0083491048,0.6618914008,-0.0709196851,0.1638693362,0.0051287534,0.1933459193,-0.0014323827,-0.1158644482,0.0725282878
1,-0.0121068051,0.6561163664,-0.0703782216,0.1892820746,0.0029863766,-0.6777486801,-0.0228710379,-0.1924926937,0.6984447837
1,-0.1496461332,0.6600251794,-0.0903529674,0.3691424131,0.0025554795,0.7796041369,-0.5176714659,-0.7432507277,-0.2851112187
1,0.0044363867,0.534894824,-0.2750853002,0.2871189713,0.002259983,-0.2689814568,0.2647043169,0.3653657436,0.0350223258
1,0.0125306509,0.5535981655,-0.253059715,0.2789367437,0.0080167577,0.2650107145,-0.0449778698,0.0990991667,-0.0854647309
1,-0.007464827,0.5817122459,-0.2179856151,0.3103649616,0.0025868462,-0.0405027494,0.0014644525,0.1108781621,0.1497533321
1,0.0095803384,0.5818271041,-0.2011101395,0.3424814939,0.00503211,0.6098148823,0.9625578523,0.8157610297,0.5227315426
1,0.1190989316,0.8132274747,-0.0067259385,0.4867831767,0.0050993208,-0.0053330078,-0.2451658845,0.0035103455,-0.2267545909
1,0.133891359,0.8105355501,0.0042464752,0.4530248046,0.0079596369,-0.2910282314,-0.1709870845,-0.2754569948,0.5777745247
1,0.0782322288,0.7753527761,-0.0314483531,0.6036335826,0.008470594,-0.2197106779,-0.9064660668,0.2405553311,-0.4700615704
1,0.0211298242,0.6022782922,0.0362664722,0.4853243828,0.0074092592,-0.2356631309,0.1474078149,0.1615897417,0.2901745439
1,-0.000381161,0.6047784686,0.0449551754,0.5209740996,0.009006504,-0.1644175053,0.1152085587,-0.2968810797,-0.1148876175
1,-0.0268930979,0.6395905018,0.0368352272,0.5970571637,0.0085010342,-0.3113181591,-0.0626178905,-0.0352646559,-0.0081038345
1,-0.047472246,0.6382564902,0.0213504639,0.5411559939,0.0098075038,-0.2082253695,0.1015056819,0.0283444375,-0.0653624311
1,-0.0807872862,0.6478140354,0.029998539,0.5528736711,0.0093305139,0.7089390159,0.3736926615,0.5887875557,-0.2916315496
1,0.0686600283,0.7460384965,0.1757256687,0.478972137,0.0102306567,0.0251312461,-0.2737856805,-0.3358588219,0.1887892932
1,0.0798462331,0.7304615378,0.1593108475,0.545755446,0.0119709121,-0.017858671,0.0982930511,-0.1824256778,-0.2766290605
1,0.0791677535,0.7177703977,0.139706105,0.508279562,0.0129472008,0.0682703331,0.3572342396,-0.0274053272,0.163720727
0,0.0819935128,0.7433374524,0.1247349754,0.4685280025,0.0120022092,0.5156950951,0.5742982626,-0.342368573,-0.9847935438
0,0.2130281776,0.8604522943,0.0283574164,0.5611921549,0.0099194599,0.5503682494,0.9035996199,-0.4330020845,0.066948466
1,0.3515949547,1.069231987,-0.0958295986,-0.3374977708,0.00167846,-0.4155597985,0.431589365,-0.0750525743,-0.353058964
0,0.2996990681,1.1389790773,-0.1143988222,-0.5236688852,-0.0137720322,-0.73985219,0.8173802495,0.5270366073,0.1921813339
1,0.1148077622,1.2395210266,0.0073940796,-1.018574357,-0.0104206484,-0.3402070701,0.5881646872,-0.1527247578,-0.0294666756
1,0.1012655944,1.2451348305,-0.0032582439,-1.0252951384,-0.0068069575,0.5829966664,-0.2124041319,0.0361854061,-0.1146302
1,0.2199576497,1.2020186186,0.0073593948,-1.0502369404,-0.0065788473,-0.3924329579,-0.4359135032,-0.2790470719,0.264709264
1,0.1437479407,1.1142778397,-0.0504859649,-0.9832066298,-0.0064915228,-0.0033866593,0.1038457677,-0.4093698263,-0.1155468225
1,0.1346459389,1.1405501366,-0.1140129194,-1.0076694489,-0.0073835338,-0.4038156271,0.1898528636,0.1950259358,0.22593382
1,0.0775944814,1.1922522783,-0.0777348429,-0.9426125884,-0.0065466217,-0.5730028152,-0.2839741409,-0.9015158415,0.5065723062
1,-0.0660500452,1.1297831535,-0.2705480158,-0.8140711784,-0.0079300348,0.0123500396,-0.2493361831,0.3331355155,0.2802208662
1,-0.0685292482,1.1146062613,-0.2593680024,-0.7821173072,-0.009030344,-0.671421051,-0.7556834221,-0.2957366109,-0.6587823629
1,-0.2382414043,0.9370422959,-0.3288716972,-0.9456626773,-0.0103050424,-0.9544220567,0.7934032679,-0.1030453146,0.3284141421
1,8.65963647811441E-06,0.0004705033,0.0015050545,-0.0001780143,2.27794748752785E-06,0.1976583302,-0.1694454998,-0.1223702654,0.095454812
1,0.0124899205,-0.0029350291,0.0026534314,0.0349507704,-0.0020612294,-0.7144170403,0.254753381,0.6506479383,-0.8721582294
1,-0.1475972384,0.0699916855,0.1662372798,-0.1786658466,-0.0031279095,-0.014729281,0.274492383,0.0834639817,-0.3826295137
1,-0.1527255327,0.143150419,0.1919203699,-0.2687947452,-0.0035538201,0.2461176217,0.346046716,0.4286034703,0.0378261656
1,-0.1063157022,0.2167191654,0.2674261332,-0.2482503802,-0.0035049047,0.0602856316,-0.1652560532,0.1950467378,-0.0841554403
1,-0.0952512473,0.2226262093,0.2959417701,-0.2522847652,-0.0028013475,-0.0425575897,0.5673799515,0.3490291834,-0.0038700567
1,-0.1052758843,0.3716833591,0.3872951865,-0.2484584153,-0.0027263868,-0.1447763592,0.5558316112,0.8872139454,-0.0681963563
1,-0.1418006271,0.5144851208,0.5733776093,-0.2577157319,-0.0034271569,-0.045842655,0.0266603529,0.1371144354,0.0534295626
1,-0.150488928,0.5262596011,0.5982140899,-0.238869071,-0.003734234,-0.4672402143,-0.513671577,-0.7440341115,-0.3320830166
1,-0.2564550042,0.4183739424,0.4550915956,-0.3230753243,-0.0046260413,0.0886973217,0.4646995366,-0.1550890654,0.1667086184
1,-0.2339763492,0.5395959616,0.4246665835,-0.2767764032,-0.0043617962,0.0884425938,-0.1896268278,0.0537487008,-0.1074517369
1,-0.227467224,0.5326317549,0.4317546487,-0.2923109233,-0.0051674293,0.8676380515,-0.9837123156,0.1274439991,-0.534591496
1,-0.0378084444,0.334474504,0.4668959677,-0.4230315983,-0.0045415433,0.1589111537,-0.4117990136,-0.0400320292,0.1707235724
1,0.0020506256,0.2558551431,0.46258834,-0.3791462481,-0.0034938154,0.1290250868,0.0526675619,-0.0285734106,0.1191694066
1,0.0152104823,0.2572155595,0.4573822916,-0.3560312986,-0.003858279,-0.1977849305,0.2211031169,0.0342040658,0.1296478063
1,-0.0161256548,0.3086361289,0.4690460861,-0.3161723912,-0.0034384183,0.9565840364,-0.8970962763,0.3963824511,-0.6543693542
1,0.1822317839,0.1242685616,0.5701242685,-0.4765139222,-0.0031765574,0.0868129283,-0.0485501103,0.0350967422,0.1562118679
1,0.1968024224,0.1122019067,0.5716247559,-0.4730525017,-0.0008795968,0.8556047678,-0.2092538327,0.5369322896,-0.1851858646
1,0.3977719545,0.0663891062,0.7074180841,-0.515391767,0.0005271925,-0.4435812533,0.348312676,-0.0785716027,0.021488348
1,0.3385347426,0.1433789432,0.697206676,-0.5029276609,0.0013007018,-0.1453608721,0.0775661543,0.2094668597,-0.4551652968
1,0.3039108813,0.1673047841,0.7394074798,-0.6111212373,0.0004507222,-0.2377795726,0.0783212185,0.1815498769,0.3243156374
1,0.2882351875,0.1737201065,0.7531369925,-0.5948598981,0.001871899,0.1314801574,-0.0571151115,0.2613179386,0.2827140391
1,0.2774356306,0.1771476716,0.7697441578,-0.5257776976,-0.0016874509,-0.0589915626,-0.1233674884,-0.0200732332,0.1339387745
1,0.2884269655,0.1612392962,0.7919787765,-0.4871973693,-0.000537483,-0.9034447074,0.4696686268,0.427228421,-0.0944927111
1,0.1007639393,0.2839122713,0.8986315727,-0.5072759986,-0.0007963938,-0.1438700855,-0.1959465295,0.0552498624,0.1133202165
1,0.0853163823,0.276733011,0.9021852612,-0.4852942228,-0.0021281883,0.2216423899,0.1622607708,-0.1133485883,0.3869573176
1,0.0861975104,0.2740951777,0.8986013532,-0.4570969343,-0.0058202115,-0.524789691,-0.6304207444,-0.7078889608,-0.9792630672
1,-0.0450493246,0.1218786612,0.7267621756,-0.7001246214,-0.0058666533,-0.0598584674,0.3021102846,-0.0856345221,0.1105546504
1,-0.0506741107,0.1354360431,0.7191572785,-0.6845194101,-0.0052455091,0.0739092752,0.1329277307,0.0074205706,-0.3151331246
1,-0.0362914689,0.1740667522,0.7254379988,-0.7547519207,-0.0052492847,-0.2041923255,0.8460513353,0.6211026907,-0.900216341
1,-0.0864195153,0.3744133711,0.8562057614,-0.9709817171,-0.0061222524,0.7601019144,-0.481498152,0.4379068911,-0.974840343
1,0.091564998,0.2625016272,0.9647853971,-1.1808998585,-0.0049448246,0.1523469985,-0.157434687,-0.4766128659,0.0008413669
1,0.1232054904,0.2359718084,0.906223774,-1.1783621311,-0.0043780366,-0.1539297998,0.0179770421,0.2613771558,0.283154279
1,0.1221065074,0.2317472398,0.8899521828,-1.1795666218,-0.0018942374,-0.1042422503,-0.1710326076,-0.0557298549,0.0617492348
1,0.1022124738,0.2212256789,0.9083167911,-1.0868537426,-0.0021310083,-0.8014101982,0.2745754719,0.0160557963,-0.5704071522
1,-0.093728371,0.2957447767,0.915697515,-1.2256417274,-0.0031594026,0.214271456,-0.0551593937,0.0866137967,-0.0096605392
1,-0.0912443399,0.2931661308,0.9197600484,-1.224427104,-0.0060416446,-0.2331010699,0.1509781182,0.1364474744,0.3058378994
1,-0.0892623141,0.3027098775,0.9324826598,-1.2126871347,-0.0031132661,0.1637399495,-0.1434654593,0.2442701757,0.0078286557
1,-0.1066998541,0.314812094,0.9429551363,-1.1506203413,-0.0055275094,-0.0243611019,0.1426389515,0.0395050459,-0.3708162308
1,-0.1106280163,0.3523879647,0.9571187496,-1.2389627695,-0.0058160839,0.6161991358,-0.4830773473,-0.5430923104,-0.9314163327
1,0.0023194356,0.2494767606,0.8495568037,-1.2490217686,-0.0060213706,-0.115773268,-0.3288651109,-0.0396652594,-0.0485672243
1,-0.0024339121,0.205199331,0.8429991603,-1.247836113,-0.0048274621,0.6323260665,-0.300490886,0.5691781044,-0.3099823892
1,0.124360539,0.1373970807,0.9735569954,-1.2460474968,-0.0043302295,-0.2081445307,-0.0804560035,0.2010017931,0.2005460858
1,0.1297513247,0.1310517043,0.9875816703,-1.2329962254,-0.0006907838,-0.2158640772,-0.0522158705,-0.2235168964,-0.0647451431
1,0.089366056,0.1258791834,0.9630451202,-1.24045825,-0.0007374002,0.1355622262,0.3898255527,0.1809425354,0.0728635788
1,0.1142392606,0.2039848417,0.9950402975,-1.2131839991,-0.0009542915,0.6912362576,0.5601397157,-0.5416989326,0.009048677
1,0.2389417887,0.3437845409,0.8908831477,-1.2070944309,-0.0010906387,-0.1977991164,-0.236050427,0.4113985896,0.0874951184
1,0.2057831138,0.2995177507,0.9659888744,-1.1815308332,-0.0010860889,0.194373697,-0.2288785726,0.3672896326,0.1275791526
1,0.2411074787,0.2576946914,1.0338201523,-1.1463766098,-0.0010071616,-0.1493116617,-0.2434482723,0.2255661488,0.3019926846
1,0.2340611219,0.233503148,1.0583004951,-1.0943675041,0.0006776696,0.0117506748,-0.3759222627,0.150088504,0.1577608883
1,-3.50608861481305E-05,0.0015882842,0.0038241413,-0.0049767871,-3.98310703531024E-06,0.1083974391,-0.0376783125,-0.0543424152,-0.2183513194
1,-0.0002313472,0.0153323812,0.0144264614,0.0639034957,-0.0003033317,-0.1821592152,0.0240226313,0.311733216,0.1061514094
1,-0.0212126486,0.0168781448,0.0498695523,0.0812861696,0.0004562465,-0.2714144289,-0.0222628899,-0.1179573461,-0.1807231307
1,-0.0355797522,0.0240884256,0.0623563528,0.1101783961,0.0025790802,0.1429540813,-0.0354285352,-0.0364359394,-0.3007418811
1,-0.0547732078,0.0263700187,0.0547681674,0.0498389378,-0.0010693027,-0.1830741018,-0.045101393,-0.2952059507,-0.4047450125
1,-0.0440844223,0.0253959876,0.0453090668,0.0308676418,0.0012385501,-0.193209514,-0.1302315742,-0.1148282215,0.0392111391
1,-0.0614936352,0.0218908191,0.0313202441,-0.0015526358,0.0009649312,0.3952845931,-0.9939528108,-0.0825592503,0.817376256
1,0.0358238891,-0.2042051554,0.018622512,0.2022968084,0.0020586518,-0.8198226094,-0.9678790569,0.248739481,-0.9603404403
1,-0.141981259,-0.4111443162,0.0842889249,-0.0350127742,0.0010383878,0.0408886857,-0.1841748208,0.0500614233,-0.0700724795
1,-0.1486852765,-0.4358816147,0.0904420391,-0.0499948561,-0.0013352568,0.1994748712,-0.9241402149,0.7805056572,-0.0426336639
1,-0.0994036049,-0.6345649958,0.2806360126,-0.0577308014,-0.0012726325,-0.1319060177,0.1217440367,-0.0762864724,0.0596375279
0,-0.1059722453,-0.6385604143,0.2760567665,-0.0548807308,-1.60953604790848E-05,0.6373934746,-0.9854456186,-0.6866573095,-0.5628753901
1,0.0529306494,-0.6421716213,0.1104994789,-0.1948957145,-0.0001199752,0.050277967,0.0762746632,-0.1031018347,0.2791512012
1,0.0576119162,-0.6406126022,0.1041752547,-0.1812533289,-0.0009168842,-0.057475958,0.0025015261,0.0062196581,0.2445409149
1,0.0523303486,-0.6332821846,0.1058265194,-0.1133893579,-0.0006029356,0.1285630465,-0.2156178206,0.3140982091,0.0633173808
1,0.0582753345,-0.6437562108,0.1193500608,-0.1033395976,-0.0015201478,-0.5059655309,-0.1514487118,-0.0607940145,0.3497480154
1,-0.0022117882,-0.6471068859,0.1194363087,-0.0144562274,-0.0015034236,-0.2620778084,-0.3133633733,0.3354796171,0.1103713363
1,-0.0248682387,-0.6455767155,0.1372323781,-0.0065477211,-0.0011036352,0.6618756652,0.6272825003,-0.3064144552,0.1265567243
1,0.1063403413,-0.495477885,0.0801643878,0.0308731608,-0.000963686,0.5608794093,-0.2712548971,-0.6110918522,-0.6528468132
1,0.2442379743,-0.5657954216,-0.0592165031,-0.1322170347,-0.0005398758,-0.1878647059,-0.1368969679,0.2852337956,0.1236126274
1,0.2279138565,-0.5789247751,-0.0414274931,-0.1016376317,0.0002027719,-0.4416096509,0.6657456756,0.9695999026,-0.7341136336
1,0.122099556,-0.4435568154,0.1748389602,-0.2760904729,-0.0003273961,-0.0896756947,-0.1931127757,-0.3067420125,0.01985058
1,0.1049529836,-0.4550942779,0.1543878317,-0.2328645736,-0.0009121973,0.1598147452,-0.0556004271,-0.4310072064,-0.1251835823
1,0.1384482235,-0.4703496993,0.0744429901,-0.263522923,-0.0006710257,-0.1541905701,-0.1629197747,-0.3279941082,-0.0210007988
1,0.1296789348,-0.4757881463,0.0571650602,-0.2566398084,0.0007151747,-0.4362546206,0.179346323,0.1156790257,-0.0880423561
1,0.0254511703,-0.4280722141,0.0886624455,-0.2732234299,4.79664740851149E-05,-0.2726300359,-0.013009998,-0.4122364521,-0.0449617282
1,-0.0314495079,-0.4277093112,0.0214478876,-0.2834767103,-0.0003225773,-0.2235705554,0.0738024861,0.1049711928,0.0193715654
1,-0.0533695519,-0.4258659482,0.0208009686,-0.2832326293,0.000151597,-0.183788076,-0.405477941,-0.0564314835,-0.1334693283
1,-0.0929818973,-0.4788674414,0.0209267773,-0.3165363371,-0.0003520461,-0.1771201789,0.2541343868,-0.4103558958,0.3670684695
1,-0.1317454129,-0.4344643354,-0.0551761277,-0.2225622535,-0.0007692185,-0.0567401871,-0.1205754429,0.2308196574,-0.7472174168
1,-0.1456816047,-0.4600777924,0.0016314471,-0.4066363871,-0.0008805274,-0.5958406329,-0.5112587214,0.9643565416,0.3518792689
1,-0.2731781602,-0.5787186623,0.2176700234,-0.3155754209,-0.001602356,-0.1890783906,-0.0545303077,-0.1201038733,-0.0441370532
1,-0.2920930684,-0.5826780796,0.226256296,-0.3137674928,-0.0014929425,-0.0263163876,-0.3079937398,-0.2361045182,0.0438987091
1,-0.2997817397,-0.5837643147,0.2060519457,-0.3080624938,-0.0017896211,-0.186819151,0.0880454183,-0.3600036204,0.0267940871
1,-0.3058072925,-0.5816844702,0.1793794632,-0.2969865203,-0.0025508977,0.5089965463,0.8082594275,-0.0901639611,-0.90551579
1,-0.1960886121,-0.440500617,0.1614502519,-0.5224721432,-0.0020748237,-0.2149995565,-0.0019705596,0.0820401311,-0.0925209895
1,-0.2036476284,-0.4177900255,0.1743711084,-0.5279206038,0.0001486393,-0.472943902,0.9144673347,0.826757133,-0.6807435155
1,-0.3205586374,-0.1921716034,0.3794138134,-0.6910367608,-0.0001700499,-0.2212253809,0.0697071329,-0.1260604709,-0.1723858714
1,-0.3359167874,-0.1771594584,0.3767279685,-0.7146299481,0.0012616612,-0.3178931177,-0.0876981989,-0.6516054869,-0.3724168539
1,-0.4148320258,-0.1956657618,0.2463480681,-0.8069543839,0.0006716553,0.5185850859,-0.004235297,0.4463914335,-0.8645318747
1,-0.3418434858,-0.1923273951,0.3333089948,-1.0139796734,0.000471005,-0.4647875428,-0.3620306551,-0.3824097812,-0.1527162641
1,-0.4039649367,-0.2575700283,0.2754915059,-1.0532929897,0.0009289841,0.1027128845,-0.3375115693,0.0355284922,-0.103368558
1,-0.4144200087,-0.2823051214,0.2718895078,-1.0666644573,-0.0015651969,0.8752101064,-0.5729371905,0.7337116599,0.915413022
1,-0.2057802826,-0.419665277,0.4556775689,-0.8349946141,-0.0007181936,-0.3169314861,0.0752380267,-0.3846916258,-0.2158665061
1,-0.2656950951,-0.4007323682,0.3937273622,-0.8877639771,-0.0010520525,0.1685795784,0.3293098211,0.4432292283,0.9032280445
1,-0.2245926857,-0.3121371865,0.5025535226,-0.6554611325,-0.0006804086,-0.8610173464,0.3539142609,0.5788077116,0.0231574886
1,-0.3731454313,-0.2197132409,0.6401758194,-0.6445720792,-0.0007167613,-0.1093028113,-0.3998827338,-0.6018046737,-0.1398530602
1,-0.4012926817,-0.3129221797,0.5202701092,-0.6788551807,-0.0008201957,-0.2555351853,0.0691220909,-0.5347676873,-0.3518516123
1,-0.4512389302,-0.2945668399,0.4420300424,-0.7608395815,-0.0012907867,-0.3440365195,-0.4298150837,-0.2342099249,-0.0469737798
1,-0.5162320137,-0.3572618961,0.4027158916,-0.7706357241,-0.0021551363,-0.0244937371,-0.6739014387,-0.3391975462,-0.289888829
1,6.48218338028528E-05,0.0091082007,0.0099376161,0.0015232639,-1.499464178778E-05,-0.3927347958,-0.1688867956,-0.2077093422,0.2561088502
1,-0.0536256656,-0.0188420471,-0.0197709966,0.0670718551,0.0006315822,0.8415395617,0.1400590688,0.1394803077,0.0914913192
1,0.1234135032,0.0238377266,0.0217886828,0.0938067809,0.0009044398,0.3098442554,-0.2303783,-0.419085145,0.8644621968
1,0.1918281466,-0.0140704084,-0.0380334742,0.3153178096,0.0018985007,0.8651221991,-0.6307940483,-0.7200486064,0.8435685039
1,0.3493009806,-0.1608595997,-0.2085396945,0.5162031651,0.0017410181,0.6850559115,0.4786458611,-0.5923399329,0.9502257705
1,0.518907845,-0.0342684388,-0.3037572801,0.7628582716,0.0025800031,0.0024519097,0.3745656908,0.0389612317,0.2903984189
1,0.5202828646,0.0611261353,-0.2663619816,0.8495987654,0.0019486186,0.1884551495,-0.3229196668,0.3440404832,0.6206752062
1,0.5576613545,0.0047557405,-0.184422791,1.0221841335,0.0015374786,0.1073730066,-0.0796857327,0.1129042506,0.3066004515
1,0.566247344,-6.87676438246854E-05,-0.1756145656,1.0145040751,0.0003392393,0.347582221,0.1182298288,0.3939597905,0.0602065474
1,0.6453912854,0.0341051891,-0.0773134679,1.0312055349,0.0022643548,-0.1394199431,0.1838236004,0.2566666901,0.5061638355
1,0.6227806807,0.0764636546,-0.0271211229,1.1684042215,0.0024963722,0.516835928,0.5333791375,-0.9532679319,0.8151967525
1,0.7349742651,0.2130571753,-0.2150976211,1.2490612268,0.0044415616,-0.3865263164,-0.0072680772,-0.9151676297,-0.2964126766
1,0.6369437575,0.2184677869,-0.3940054476,1.1812591553,0.0028744212,0.0847875997,-0.0680746734,0.3047780693,0.1486356705
1,0.6457144618,0.210044086,-0.3659718931,1.2204266787,0.0030785303,-0.0756973922,0.1569768786,0.2522011697,-0.0561005622
1,0.6440123916,0.223112762,-0.3269724548,1.2087239027,0.0030008764,0.0085104406,-0.1501522809,-0.088128306,0.4204408824
1,0.6406206489,0.2354988903,-0.3043988049,1.2622814178,0.0015824791,0.11388091,0.1164646968,0.4587828219,0.3008489013
1,0.6665602326,0.2678311467,-0.2012450695,1.2508840561,0.0029449777,-0.0184678324,0.7668142915,-0.1499572396,0.1178187132
1,0.6612240076,0.4597635567,-0.2158838958,1.2532293797,0.0017293259,0.06183929,0.7323867679,-0.7512278557,-0.3068341911
1,0.6763113737,0.6497452855,-0.3453240097,1.1758884192,0.0026331637,-0.0474270582,0.3661951721,-0.5888800025,-0.2481081188
1,0.6639774442,0.7485363483,-0.4183370173,1.115293026,0.0032644917,0.0479625463,-0.2107168883,0.1866469383,0.1377403438
1,0.6685705185,0.7358151078,-0.4024505317,1.1333106756,0.003752239,0.0092542181,0.8757864237,0.9113947749,0.676143527
1,0.6710748076,0.932939291,-0.2140708566,1.2574150562,0.0033687192,0.0725419745,0.2707784474,0.1806204319,0.0632332787
1,0.6737635136,0.9440469742,-0.2103464603,1.2600539923,-0.0004427884,-0.0481392853,0.2074026316,0.742546618,0.2467284501
1,0.6619969606,0.9640038013,-0.081817016,1.2498334646,-0.0003851973,0.975523591,0.1499513984,0.4253294766,0.6799467206
1,0.841573298,0.9646523595,-0.0098563731,1.2675609589,-0.0170420557,-0.9938796759,-0.2187369615,0.7632627487,-0.2936719656
1,0.6416540146,0.8673401475,0.1311391443,1.1916520596,-0.0143001527,-0.3683792055,-0.6570056677,-0.5562813282,-0.6753742695
1,0.5497711897,0.7430356145,0.0108016394,1.0237594843,-0.0159296729,-0.5777047276,-0.3989885747,0.3091021776,0.6801915765
1,0.4299943447,0.6541953087,0.0833584592,1.1932557821,-0.0163096022,0.4172759354,0.9829306602,-0.6064213514,0.5212161541
1,0.5244569778,0.8918266296,-0.0477211811,1.2526091337,-0.0149587831,-0.415912509,-0.593867898,-0.5596075654,-0.0186633226
1,0.429582864,0.7655626535,-0.1697715819,1.2444341183,-0.0149223115,0.0486725047,-0.1869392097,0.3724846244,-0.0173796099
1,0.4357615709,0.732181251,-0.1037149355,1.2395712137,-0.0147208543,0.4994394779,-0.1239137799,0.3551510572,-0.1884247661
1,0.5432758927,0.711517632,-0.0195481256,1.1928853989,-0.0143387485,0.2242568284,-0.4267609119,0.3663811684,0.2680360377
1,0.5928347707,0.6441442966,0.0492909662,1.2491908073,-0.0132411579,0.1218837351,-0.2745960951,0.5439946055,0.1947865486
1,0.6215235591,0.5904518366,0.1459235251,1.2506403923,-0.0125646191,-0.6766440868,0.7920482755,-0.1104186475,-0.825856626
1,0.4747745395,0.7909080386,0.1245791167,1.0459173918,-0.0128178624,-0.277325958,-0.0134898489,0.5493647456,0.3183810413
1,0.4174858928,0.7939321995,0.2083466351,1.1117421389,-0.0137965698,0.6810199022,-0.8915472031,-0.9680737853,0.436999768
1,0.5606309175,0.6275314689,0.0001876755,1.2192180157,-0.013708408,0.2387548685,0.0689457655,0.2377159446,0.3334718943
1,0.5936475992,0.6159623861,0.0063000112,1.2422522306,-0.0135758212,0.0394627601,-0.1937805265,0.5262362957,-0.1437756717
1,0.6052843928,0.5783762336,0.1283576787,1.2060016394,-0.0132446326,-0.4648186564,0.5555452108,-0.8071786165,0.3732531071
1,0.4997029006,0.7203983068,-0.036270041,1.2476605177,-0.0142061859,0.2048249543,0.2724912167,0.4032566249,0.1565320641
1,0.5398136377,0.789185822,0.0386792906,1.2498364449,-0.0137021868,-0.0155294705,-0.4680695534,0.2647554874,0.139741987
1,0.5383383632,0.7158065438,0.0959175825,1.2488981485,-0.0132201891,-0.0239277948,0.2113460898,0.7156538963,0.4986828268
1,0.532220006,0.7755986452,0.2508356571,1.2487919331,-0.0132194441,-0.1601412594,-0.0236425828,0.4296892881,0.2846113145
1,0.4996495843,0.7775720358,0.32520473,1.2492185831,-0.0136205489,-0.8594419956,-0.1496924013,0.3713546693,0.9009284377
1,0.3115080297,0.74745363,0.4159591198,1.2475795746,-0.0141719291,0.5062155128,0.8130081296,0.4269394577,-0.8022067547
1,0.431012243,0.9000966549,0.4820728302,1.1093572378,-0.035620898,0.2127816677,-0.0093514239,0.0145231625,0.3359153867
1,0.4395641387,0.9005534053,0.4795678556,1.1130639315,-0.0442105383,0.9268752933,-0.3660446107,-0.7819930315,-0.3318751156
1,0.6721089482,0.7994621396,0.2834637463,1.1206583977,-0.0408907644,-0.1515791118,-0.2734855711,0.2982201874,-0.1206256673
1,0.6604665518,0.7815932035,0.3065314293,1.0918139219,-0.0378602408,0.3278644979,0.0106129088,0.2645522356,0.5120213032
1,0.7316201329,0.7907047272,0.3670382202,1.2081433535,-0.0369468518,-0.7912069559,0.9813801646,0.6001475453,-0.1198064089
1,5.66105427424191E-06,0.0002830354,0.0011433499,-0.0001212048,1.84907139555435E-06,0.8016285896,0.247404024,-0.0316297151,0.0807706788
1,0.1464716196,0.0694669113,0.0022725635,0.0239959713,-9.34666313696653E-05,-0.0393173359,0.3739219904,0.0637075007,-0.3447555304
1,0.1479199678,0.1405778378,0.016846342,-0.0561289936,0.0006525248,-0.8648503423,0.046600163,-0.4664263129,-0.3222379684
1,-0.0466247164,0.1592006683,-0.0899539292,-0.1330368817,-1.82511685125064E-05,-0.2451507151,-0.1488842219,-0.0545220561,-0.2346071303
1,-0.0629835278,0.1566118747,-0.0909992903,-0.1324547827,0.000596414,-0.0440269932,0.0767063573,0.0732493773,-0.0968727097
1,-0.0859089941,0.1457096636,-0.0918240026,-0.1804099977,-0.0018964951,-0.849519372,-0.732747972,-0.2549616992,0.6229572296
1,-0.2981587052,-0.0314340293,-0.1499293745,-0.021778712,-0.0031064514,0.1844161153,0.4555211365,-0.0115962736,-0.2030215114
1,-0.2602103353,0.0499910936,-0.148950085,-0.0680766702,-0.0028530299,-0.8191902637,0.8704511523,-0.5038669109,-0.7378589511
1,-0.4239947796,0.2766316533,-0.2583868504,-0.2478458136,-0.0027864345,-0.2001104951,-0.1755024344,-0.3410934508,-0.4922057092
1,-0.4730660021,0.2488495559,-0.3125165403,-0.3349702954,-0.0038061014,-0.2660810947,-0.0102698896,0.2281385213,-0.1461471766
1,-0.4879460037,0.2401927412,-0.3099517524,-0.3807539642,-0.0021862842,0.594776392,0.6906498671,-0.1030517966,0.3268249035
1,-0.3937905431,0.4044077396,-0.3232393265,-0.2887910306,-0.0028510103,0.0788504481,-0.1120075285,-0.2439047694,-0.2393658012
1,-0.3694840074,0.4150234461,-0.3296300173,-0.2933022976,-0.0010573363,-0.0082361344,0.0608238466,-0.1970517933,-0.2299515307
1,-0.3671338558,0.4090197682,-0.350428313,-0.3559966385,-0.0003046146,0.8688229322,0.6299926639,0.8570597172,-0.1637632847
1,-0.173726663,0.5802586675,-0.1366255134,-0.3914851546,0.0003680748,-0.4654163122,0.0938139781,-0.0728325248,-0.1587700248
1,-0.2708655298,0.6124145389,-0.1470730305,-0.4271979928,0.0002387159,0.0028086316,-0.0181734972,-0.4896712899,-0.5075634122
1,-0.2741465867,0.6164892316,-0.2418538183,-0.5525180697,-1.72915406437824E-05,-0.3625174165,0.0604685135,-0.4534732997,-0.3321013153
1,-0.3424276412,0.6379522681,-0.3255910873,-0.6337272525,-0.0001483303,-0.1546702683,0.0596569777,-0.0422699787,-0.5347804427
1,-0.3817963898,0.6592895389,-0.3289380372,-0.7392226458,-0.0015289454,-0.323033154,-0.1934152097,-0.3755570948,-0.1641469747
1,-0.4566673636,0.6219209433,-0.4030751586,-0.7796244025,-0.0022996678,0.2420409322,-0.4763938785,0.5956166983,-0.1369416565
1,-0.4161640704,0.5504019856,-0.2976845205,-0.8100053668,-0.0028618372,0.0219221041,0.4447720051,0.4073980153,-0.5064929128
1,-0.407961607,0.6585838199,-0.2028107792,-0.9273510575,-0.0026370543,-0.1300963014,-0.9164723158,0.1296711564,0.1321629137
1,-0.4426324069,0.4515309036,-0.1663948447,-0.8949412704,-0.0030529955,-0.1697037816,0.1013097167,-0.1044678316,-0.4304239452
1,-0.476857543,0.4785486758,-0.1822359413,-0.9997942448,-0.0033730036,-0.3392520845,0.1920659095,-0.053692311,-0.336014092
1,-0.5019770861,0.5041080713,-0.1889806837,-1.0500254631,-0.0020299403,0.3820770085,0.7250112891,0.7811489105,0.1179936007
1,-0.4064714611,0.6974301934,0.0024120153,-1.0151301622,-0.0012549729,-0.0690714866,-0.3753753304,-0.1371819377,0.0318494402
1,-0.42101264,0.6380878091,-0.0181618202,-1.0036779642,-0.0012275814,-0.318454951,-0.1996376663,-0.1527232975,0.0274203662
1,-0.4318469465,0.6203097701,-0.0274222679,-0.9903721213,0.0007057518,0.3227829337,-0.7162340879,0.0412104577,0.3834134638
1,-0.3547101021,0.4752214253,-0.0135992877,-0.8927459717,0.0018147916,-0.5542157292,-0.16028139,-0.4489639699,0.1752554178
1,-0.4933948517,0.4436583817,-0.1158719435,-0.8460746408,0.0004801017,-0.089663811,-0.0785992667,-0.3407768607,-0.0288081337
1,-0.4982411265,0.4442570806,-0.1210741699,-0.8435283303,0.0004682624,-0.3393078744,0.0633875132,-0.1584838182,0.0801592767
1,-0.515846014,0.4425819814,-0.1480361819,-0.8432775736,0.0015650226,-0.1237935126,-0.2135437429,-0.4074333012,0.0385764204
1,-0.5477201939,0.4098161459,-0.2128791213,-0.8331311941,0.0011128878,0.0377109535,-0.0225776453,-0.3564810157,-0.0342229903
1,-0.54294312,0.4077586234,-0.2638967335,-0.8407737017,0.000636589,-0.213257432,-0.815844059,0.0873465389,0.0902992338
1,-0.5974519849,0.2143306732,-0.2384326756,-0.8179681301,0.0004745465,-0.1215052456,0.0070935986,0.2470673025,-0.1419669539
1,-0.6071986556,0.2142082006,-0.2178105414,-0.8561692238,0.0013842286,0.0573023818,-0.1874338984,0.0731405467,-0.1101576239
1,-0.6076920033,0.2092667073,-0.1990918368,-0.8660496473,0.0003294217,-0.9000223875,-0.368614614,-0.7605883479,-0.586714983
1,-0.8138126731,0.120486185,-0.3707301915,-1.0129818916,-0.0009228586,0.2576988041,-0.1897289008,0.0184588078,0.0079019153
1,-0.7820342183,0.0906915441,-0.3638357818,-1.0115776062,-0.0018057112,-0.1590389907,-0.0595232435,-0.4391735196,0.0247446802
1,-0.808560729,0.0826174989,-0.435390383,-1.0062139034,-0.0017431977,0.3839355409,-0.6822944283,-0.0441431589,-0.708327949
1,-0.7142396569,-0.0803061426,-0.4444747269,-1.1864277124,-0.0014738346,-0.8471216559,0.8739188313,-0.4323638678,0.7731218934
1,-0.8988121748,0.1309334189,-0.5385943651,-0.9859148264,-0.0019588915,0.2740201652,-0.0545832291,-0.1650886834,-0.1116648242
1,-0.8533326387,0.125163123,-0.5572949648,-1.0150797367,-0.0012360588,0.9577438235,-0.0654897839,-0.1316834241,-0.0008898303
1,-0.6420003176,0.1144848168,-0.5702368617,-1.0154397488,-0.0001546821,-0.2696317136,-0.9186094403,-0.5075345635,0.6430640221
1,-0.7100768685,-0.1087504402,-0.700433135,-0.8593561053,-0.0027298122,-0.6800993681,0.7154732943,0.7428460121,0.6469871402
1,-0.8568643332,0.037549518,-0.5347573161,-0.6930176616,-0.0023379268,0.2391723841,-0.2844349444,-0.2011263669,-0.328864187
1,-0.8115299344,-0.0042519895,-0.5621689558,-0.7787677646,-0.0023981081,0.1451788843,0.1751249284,0.1177765802,0.0619044267
1,-0.7919269204,0.0001610873,-0.5612697601,-0.7727563381,-0.0012251711,0.0682813153,0.0692991316,0.2561521232,0.2223457545
1,-0.7749017477,0.0285003968,-0.5063969493,-0.7140437365,-0.0004016726,0.3180831671,0.9934719205,0.5424077511,-0.253539592
1,-0.6938474774,0.2848196924,-0.3632623851,-0.7730115056,-0.0001634547,-0.612223506,-0.7290537357,0.8439248204,0.9453678131
1,7.33089473214932E-06,0.0002239162,0.0009607878,-9.9511154985521E-05,5.94820107835403E-07,0.2134573311,0.7942193151,0.1698542237,-0.8542445898
1,0.0528550819,0.1892926842,0.0479477346,-0.2041600645,0.0007409113,0.2537187636,0.6572703719,0.7300778031,-0.6192259789
1,0.1164478883,0.3562694788,0.218591392,-0.3500496447,0.0015076585,-0.0694364086,-0.0849387497,-0.0067088506,-0.0175869614
1,0.110557951,0.3580108881,0.2255763412,-0.3441552222,0.0023332692,0.2994574308,-0.1724099964,-0.1641106606,0.205599755
1,0.1230910271,0.3399457633,0.2135831714,-0.287314862,0.0002620062,-0.0135549484,0.0471707992,-0.0552093051,0.348034054
1,0.1541440338,0.336663723,0.1997146606,-0.2709843218,0.0032669154,-0.3107010722,0.2719030678,0.3367166519,-0.2449610233
1,0.1406743079,0.3505835235,0.2095926553,-0.2596778572,0.0061279689,0.4438349903,0.1470092535,0.8901509643,0.0982050821
1,0.2260467559,0.398335427,0.4168742299,-0.2305502146,0.0063272007,-0.1458926797,-0.2402940392,-0.3010664284,0.2822117805
1,0.2362999022,0.394123733,0.4170759916,-0.1987200677,0.0097412104,-0.3935650885,0.0321054831,0.0525495522,0.0588357113
1,0.1439605057,0.409064889,0.4307284951,-0.1799107343,0.0086721396,-0.258048296,-0.0554664284,-0.3521955907,0.3769266605
1,0.0923743397,0.4050261974,0.3754919469,-0.0845733285,0.0079822969,0.2572230399,-0.9832975268,0.5218368173,0.3532615304
1,0.1574263871,0.195664376,0.5074270964,0.0065397564,0.0082012136,0.7181556225,-0.8021652699,-0.1994041651,-0.3557779491
1,0.2828683853,0.0509178601,0.4671348929,-0.0797053277,0.0080338391,-0.615657866,-0.7204194665,-0.5870208144,0.3957803547
1,0.1795141548,-0.1019439623,0.342859894,0.0202307589,0.0081803333,-0.9065355062,-0.6463540196,0.547377944,-0.0639938265
1,-0.0431592762,-0.2580451667,0.4839470387,0.0080837328,0.0070277685,0.8891425133,0.4137155712,-0.8695682883,0.1718472838
1,0.1476040184,-0.150634557,0.2926104963,0.0537923351,0.0075686239,0.7824097872,0.4682898819,-0.609624505,-0.0429253988
1,0.2944851518,-0.0311742462,0.1676411778,0.0470531359,0.0075320643,0.8683645129,0.7827607393,0.0435432158,-0.5826248527
1,0.4995942414,0.1698386222,0.1874766648,-0.0930138454,0.0085548768,0.7221029997,-0.8266029358,0.1418363005,0.4023152888
1,0.678653717,-0.0089434879,0.2278622091,0.0098115513,0.0102588302,-0.3002889454,0.4513529539,0.7536972165,-0.864890039
1,0.6052063107,0.107900694,0.400271982,-0.1988831908,0.0090064192,0.3656616509,-0.8530249,0.5414812565,-0.5787869096
1,0.6980234981,-0.0752255991,0.5365330577,-0.3416542411,0.009926145,-0.4062293172,0.3706855178,-0.5619286299,-0.7996097803
1,0.6043076515,0.0196908526,0.4269207418,-0.5376380682,0.008764999,-0.1751545817,0.1607433707,0.2182963789,0.0486252867
1,0.578017652,0.0420236364,0.4461239576,-0.5201259851,0.0087178759,-0.6725996137,0.2816406786,-0.04666318,0.1699121445
1,0.4288224876,0.1189915091,0.4423509538,-0.4738059044,0.0078554312,-0.0271437038,0.3327464163,0.2946755886,0.0588142388
1,0.4212915003,0.1375681758,0.4587020576,-0.4752892554,0.006676056,-0.140007183,0.0723015666,0.1886450499,-0.1431295872
1,0.4158218503,0.1606766433,0.4801036716,-0.4521814883,0.0075674709,-0.5249958634,0.1058010086,0.4936248064,-0.2375050932
1,0.341575861,0.1904244423,0.5720295906,-0.5040218234,0.0077826995,-0.0695493221,0.1109208316,0.2093173265,0.2414145768
1,0.3207964599,0.1992767602,0.592433691,-0.49504897,0.0057361089,0.371814698,0.2245545834,-0.2123412341,0.1670965105
1,0.3821549118,0.2563981116,0.5615258217,-0.4493982792,0.0051018307,0.3647423387,0.3814524114,0.1611003131,-0.3074422777
1,0.4630899131,0.344096005,0.5954339504,-0.5181701183,0.0064747008,0.7172217369,-0.5742012262,0.7150701284,-0.5597494841
1,0.6116772294,0.2222822011,0.7634823322,-0.6560152173,0.0072111883,-0.1203843504,0.3769233823,0.4182413816,0.3264281452
1,0.593449533,0.2988383472,0.8381955624,-0.5591145158,0.0078110616,-0.5089072585,0.1876541525,-0.0003269111,0.0029210765
1,0.4824078679,0.3508822322,0.8428891897,-0.5549584627,0.0067759878,0.202591747,0.5202358365,0.3779673278,0.137807861
1,0.5217629671,0.4582959414,0.9116472006,-0.5083609223,0.0069869468,-0.4664623141,-0.0916473269,0.9743056893,0.632337153
1,0.4159493744,0.4430015087,1.1157082319,-0.3461694717,0.0059619769,-0.1526336372,0.0718842447,-0.2772096395,0.050792519
1,0.4023127854,0.4480097294,1.1215246916,-0.3261934519,0.0061009713,-0.3945117295,0.3509542644,0.0061123683,-0.0129564572
1,0.3282183111,0.5121053457,1.1143686771,-0.3369097412,0.0040962114,-0.633415699,0.2967666984,-0.0424395837,-0.0073931245
0,0.200418517,0.5648946166,1.1068056822,-0.4049929082,0.0021136254,-0.5130634308,0.8632265925,0.6303147674,-0.5029813647
1,0.0727149993,0.7692163587,1.252218008,-1.0344748497,-0.0018090786,0.1582069993,-0.1651954204,-0.3116341233,0.1514173895
1,0.0776797011,0.7650030255,1.2494095564,-1.0265188217,-0.0060361773,0.6452157497,-0.6397419572,-0.4207585454,-0.8085766435
1,0.2364085168,0.614302814,1.1468815804,-1.2172905207,-0.0055951253,-0.2973676622,-0.0179796703,0.2952527106,0.052091077
1,0.1911254227,0.6153072715,1.191478014,-1.1996228695,-0.0055472259,-0.0948674679,0.469941318,0.2447677255,0.1010439917
1,0.1691979766,0.7178489566,1.239081502,-1.1690490246,-0.0060213949,0.1213198304,-0.0466691181,0.3637754321,-0.0134828435
1,0.1802075803,0.7211101651,1.2445037365,-1.1662820578,-0.0067959549,0.2138921022,0.161680758,0.0551321357,-0.1865495592
1,0.1989347637,0.726069808,1.2463992834,-1.1957751513,-0.0077197775,0.043151632,0.1658918411,0.500027895,0.1685803831
1,0.2096028179,0.7509098649,1.2460541725,-1.1889320612,-0.0068876659,0.0270034373,-0.3751282394,0.0738803223,0.1222471371
1,0.216356203,0.6755207181,1.2485647202,-1.1567655802,-0.0068554822,0.1450587213,-0.0559986122,0.3271119297,-0.1239907965
1,0.2289861143,0.6708929539,1.2491316795,-1.1750329733,-0.0075484463,-0.0306982435,-0.9344769716,-0.4131273627,0.2500697076
1,0.2213700563,0.4497430921,1.1481938362,-1.1097416878,-0.0075726463,0.1692523658,0.2262011915,0.0385745317,0.3107360899
1,0.2342599332,0.4643417597,1.1497784853,-1.1016985178,-0.0085558193,0.9466687441,-0.5543391109,0.4879885018,0.4076154828
1,8.19781271275133E-05,0.0079571363,0.0091040265,0.0024767139,-2.82388064078987E-05,-0.0198886618,-0.2711111903,-0.2922853827,0.0615102574
1,-0.0041438788,-0.0051684752,-0.0044579231,0.0354575738,-0.0001651187,-0.9196596146,-0.3589785993,-0.1980821043,0.9971218705
1,-0.219777137,-0.0880988687,-0.0399872623,0.2953733206,-0.0011776078,0.314009428,0.2444689721,0.7639207244,-0.8249835968
1,-0.1452488899,-0.0184095483,0.1378579289,0.0958565697,-0.0003147522,-0.97402215,-0.8133857846,-0.1314445138,-0.5476594567
1,-0.3880939186,-0.2117960602,0.1100244373,-0.0395204611,-0.0013350197,0.3525737822,0.080698818,-0.3002389371,0.178110227
1,-0.368273735,-0.2036231458,0.0874219984,0.0087589808,-0.0033406971,-0.198205024,0.5412633419,-0.8779888749,-0.3547699153
1,-0.4147880673,-0.0673955232,-0.074305445,-0.0757276714,-0.0038972774,0.3900361657,0.1287745684,0.0357760377,0.4991061091
1,-0.3349618316,-0.0282767173,-0.0617195927,0.0550760441,-0.0036065537,-0.0489468053,-0.2804234326,-0.1972255856,0.6752343774
1,-0.3410141766,-0.0748537779,-0.0838232562,0.2249834538,-0.0031042972,-0.6655213237,-0.3179243207,-0.8697119951,-0.3550241292
1,-0.4804756939,-0.1522652954,-0.2765472531,0.1293741912,-0.0045117112,0.2358676791,0.2381087691,0.8752100468,0.0897477418
1,-0.4252129197,-0.0857076123,-0.0907473117,0.1642154157,-0.0038215546,0.2985677421,0.0642174333,-0.3304777443,0.0439003818
1,-0.3595044613,-0.0627291575,-0.1380811334,0.1849616319,-0.0029778786,0.6023321748,-0.0850198716,0.175271228,-0.344029367
1,-0.2319411337,-0.0771590322,-0.0911460295,0.1078719646,-0.0021480848,0.5506378412,0.1941523552,0.190754205,-0.2444572598
1,-0.1509639323,-0.0295405816,-0.050083492,0.05394895,-0.0024710323,0.0143055608,-0.2072147876,0.0798690468,-0.1252985448
1,-0.1417040229,-0.0665468648,-0.0273824185,0.0242277235,-0.0018839624,-0.8603006601,-0.6426196098,0.4049629271,-0.2943037748
1,-0.3449468911,-0.2204679549,0.0759686381,-0.0468871929,-0.003484742,0.8113286495,-0.2740557492,0.1185771301,0.130859077
1,-0.201076746,-0.2835846543,0.1097147241,-0.0107013322,-0.0035823067,-0.2542177737,-0.3729486167,-0.0480126254,0.6790164113
1,-0.2368284464,-0.346552968,0.1084124669,0.1621261537,-0.0029521543,0.7845463157,0.2997697294,0.030214278,0.0293282904
1,-0.0728594735,-0.2656391561,0.1242118701,0.1738070548,-0.002383851,0.0358324237,-0.1315306425,0.0296504032,-0.1714236587
1,-0.0629534945,-0.2739859819,0.1335172057,0.1444067508,-0.0009120285,0.280885905,0.1803037971,-0.0108412644,0.0893335715
1,-0.0499243215,-0.2778971791,0.1300660521,0.1490724534,-0.0027173837,0.2158888876,-0.0372844748,-0.3934197128,0.4574726224
1,0.0013351926,-0.278516084,0.0609014556,0.2663891017,-0.0022500614,-0.7668657303,0.2678733468,-0.6444422007,-0.0193591155
1,-0.1811095625,-0.2068252116,-0.0787684023,0.2718236744,-0.0030682606,0.5951257944,0.3332211971,-0.3505666554,0.6498892307
1,-0.0669112504,-0.1196286082,-0.1315349042,0.4431092739,-0.0031441322,-0.5530706644,0.4703534544,0.3084152639,0.9161832929
1,-0.1793841869,0.0064719599,-0.0406234041,0.6797977686,-0.0032415704,0.3304257989,-0.4088980258,-0.0374431722,-0.2913416922
1,-0.1251745075,-0.0700945705,-0.0435481779,0.6055801511,-0.0025568777,0.1411026418,-0.1034554914,-0.0933083519,0.3010932207
1,-0.0917922705,-0.0899292007,-0.0449512117,0.6905502677,-0.0020805406,0.0611773767,-0.1610049158,-0.0073098335,-0.1410157531
1,-0.0830360726,-0.1002334058,-0.0361293741,0.6626195908,-0.0020692588,-0.3594711423,-0.0077403421,0.1484272033,-0.0803910866
1,-0.0885424986,-0.1078720018,-0.02956637,0.6434618831,0.0011211613,0.281354785,-0.4148177803,-0.368847549,0.2892984152
1,-0.0313158073,-0.1980571151,-0.1102728546,0.7150225043,0.0015320547,0.2092907727,0.1790859252,0.4245742857,-0.0542220436
1,0.012850292,-0.1632497311,-0.0311221313,0.7122347951,0.0021734941,-0.3036550879,-0.4770116806,0.2062014043,-0.002421381
1,-0.0477666855,-0.2486562282,0.0279259235,0.7147717476,0.0010658689,-0.4468758106,-0.1200784147,0.1136319861,0.3096936047
1,-0.1167901903,-0.2721515,0.0528812893,0.7977645993,0.0014867203,0.1327094287,0.144882068,-0.0374530405,-0.032089252
1,-0.1249368861,-0.2633940578,0.0563972183,0.7900080085,-0.0027175157,0.0110409874,0.2073457986,0.3106563091,-0.135880962
1,-0.1131096333,-0.2419369519,0.0702028051,0.7627969384,-0.002021248,0.2337021381,0.144278869,0.1386072934,-0.1332081407
1,-0.1067934334,-0.2175829709,0.0995000973,0.7614104748,-0.0048097773,-0.4525212348,-0.095250994,0.8548855186,-0.4612761438
1,-0.1733433902,-0.2322396934,0.2705793977,0.6522453427,-0.0044665132,0.0399937741,0.0377828181,0.0679018199,0.1998315006
1,-0.1893240511,-0.2289638668,0.2855261862,0.6780513525,-0.0078572119,-0.444354862,-0.1867424846,0.7216295004,-0.0001606905
1,-0.2450037152,-0.2624745071,0.4149485528,0.6840624809,-0.0076244441,0.2939750552,-0.6298846006,-0.778881669,0.9670786262
1,-0.1757419556,-0.4001140296,0.2616765499,0.9269343615,-0.0070373695,0.0625577793,0.0171933491,-0.0130462721,-0.3034862578
1,-0.1652178764,-0.4036354721,0.2546056807,0.8700860143,-0.0066676792,0.7749866843,-0.7574443817,-0.320168227,0.0124387881
1,0.0158044714,-0.5843702555,0.1814088821,0.8760138154,-0.0056751869,0.7215386033,0.1647298783,0.1245899573,-0.009505338
1,0.1759345978,-0.5404953957,0.2176463157,0.8773040175,-0.0047669369,0.7551442981,0.3615933061,-0.0410521552,-0.9293852448
1,0.3189426661,-0.4499699771,0.2157899737,0.6714043617,-0.0048637851,-0.4872121215,-0.6619364619,-0.8896964192,-0.0692795217
1,0.2162620425,-0.594386518,0.0510656126,0.6549453735,-0.005179849,0.0712629333,0.0683240369,-0.1597392559,-0.3309335709
1,0.2067708969,-0.6136147976,0.0133839333,0.6414796114,-0.0080164978,0.3344306052,0.4711603224,-0.0926548168,-0.2468037307
1,0.2773931026,-0.5142737627,0.0040048468,0.5950810909,-0.0077073234,0.4010307193,0.4508056641,-0.2771188617,-0.1662237793
1,0.3525482714,-0.4235571325,-0.0319411643,0.5633494258,-0.0074682403,0.5382602811,-0.7910032272,-0.1066753492,-0.0741118938
1,0.4770543277,-0.5674133301,-0.0556449369,0.5557392836,-0.0060565416,-0.316001147,0.4210177362,0.4205191433,-0.1255986243
1,0.4026790261,-0.4615715742,0.0510809869,0.534519732,-0.0075203627,0.1203857884,0.2340806872,-0.2686378658,-0.0376764759
1,7.83605264587095E-06,0.0003346594,0.0012062681,-0.0001340718,1.84390057711425E-06,0.6720920801,0.9516001344,-0.7304805517,-0.4868087471
1,0.1142991334,0.1997818798,-0.1393906623,-0.1157148033,-0.0001852358,-0.210372299,0.1273208708,0.2791824937,0.3986817002
1,0.075956367,0.2427917421,-0.0775226057,-0.0090590762,-1.26352215374936E-05,0.0561282597,0.2775477767,0.2135021836,-0.2829862833
1,0.0745026469,0.2602921724,-0.0609442219,-0.0826071799,-0.0010608406,0.0917322934,-0.0576370209,-0.4375491738,0.3009730279
1,0.0954762101,0.2610748708,-0.1309891343,-0.007503896,-0.0011597291,-0.1078082696,0.1474815458,0.0987417921,-0.0638917238
1,0.0887154937,0.2675261796,-0.1332364231,-0.033508949,0.0001062135,0.0452373661,-0.0063730143,0.3297266662,-0.2138481587
1,0.0873636156,0.2781192362,-0.0991918966,-0.0571741201,-0.000803224,0.4512915611,-0.1991106868,-0.991985023,-0.815593183
1,0.2017753422,0.2324190289,-0.3236213326,-0.259234935,-0.0002973387,0.0908959806,0.3085384071,0.233556807,0.0039199013
1,0.2063421309,0.2407582402,-0.3223921359,-0.276963532,-0.0007406357,0.3048328757,0.2318923771,-0.3356080055,0.2375888079
1,0.2659316659,0.3058523238,-0.3686512113,-0.2116888911,-0.0006906491,-0.1517118663,0.4551537633,0.2154768407,-0.1516523808
1,0.2429348677,0.3970518708,-0.3308287859,-0.2426104248,8.33936719573103E-05,-0.1521218866,-0.1117480248,-0.2695997059,-0.1116163656
1,0.2286747843,0.4156090021,-0.3285744786,-0.2174705863,0.0011317782,0.1935689598,0.348421067,-0.2307223082,0.1383791566
1,0.2570114136,0.4842552543,-0.3698320985,-0.1735172123,0.0001792228,-0.0332972966,0.0097839041,-0.0038150393,0.0649365336
1,0.2625962794,0.4990391135,-0.3647348285,-0.1545629054,0.0013131058,0.0950499997,0.1175650284,-0.0248647649,-0.096367009
1,0.2755960822,0.5259423256,-0.3644039333,-0.1729331464,0.0012391952,0.3120112717,0.0184035413,-0.1448123157,-0.0012835437
1,0.2838706076,0.5346189737,-0.3646653295,-0.1676284224,-0.0010129208,0.0113464706,-0.1198719814,0.0233217552,0.1849080771
1,0.3115342259,0.5309870243,-0.3649483919,-0.1308463812,0.0012766155,-0.0092555722,0.372754693,-0.0268182792,0.022978846
1,0.3106208444,0.6316629648,-0.3561198711,-0.1149368808,0.0012741844,0.0535444058,0.1390344352,-0.2288216203,0.4818544388
1,0.3213619888,0.6720775962,-0.3777497411,0.0138725974,0.0012118784,-0.7232465744,-0.6855945587,-0.4188597202,-0.3326075673
1,0.2067492157,0.5377944112,-0.4481873214,-0.0725137442,0.0013357466,-0.0024190168,0.0132778836,0.1351183355,0.3435463309
1,0.1941220313,0.5392215848,-0.4135923088,0.0213400684,4.56082889286336E-05,0.8931185603,-0.9794142246,-0.9920156598,-0.909029603
1,0.414521426,0.307923913,-0.6560320854,-0.2052064836,0.0007030405,0.2527171671,0.084911637,-0.0160911605,-0.0190642476
1,0.4750914574,0.3257601559,-0.6502481699,-0.2093659192,0.0014849012,-0.25637573,0.215402022,-0.0590073876,0.0273702424
1,0.4599362016,0.3521843553,-0.643640399,-0.2007558793,0.0032743127,-0.3776382804,-0.6530265212,0.5986177921,0.3375251293
1,0.3683499396,0.2220117748,-0.4835408926,-0.1122697592,0.0023409927,-0.1009549722,0.3272460699,0.146692872,0.0235897545
1,0.3567657173,0.2307990938,-0.4740078747,-0.1243057102,0.0028481677,-0.1614044011,0.3084400892,-0.0860587955,0.056687288
1,0.3435800672,0.2761391401,-0.4648145437,-0.0981113166,0.0036859685,-0.512586832,0.345710963,-0.2496540695,0.189785257
1,0.2582089603,0.3684883118,-0.4864639938,-0.0381829143,0.0036779752,-0.1684522778,0.3514166772,-0.0859403983,-0.0627545565
1,0.2321080565,0.3919135928,-0.494489789,-0.0653215274,0.002859887,-0.4762357175,-0.1048074216,0.1336785853,-0.1420582086
1,0.1356157809,0.3857916594,-0.4405974448,-0.1012444571,0.0022206919,0.1830684692,-0.1880077422,0.0894570202,0.3749165237
1,0.1670039743,0.3506548107,-0.4005401134,-0.0042623705,0.0014818311,-0.3765287399,-0.032983683,-0.2185543925,0.0536550395
1,0.1168418601,0.3526821136,-0.4153312445,0.0172811523,0.0020304199,-0.2964749038,0.9831975698,-0.6803145409,-0.2121601403
1,0.038826786,0.5763722658,-0.5389822125,-0.0180464815,0.0011505901,0.6775591969,0.6334021688,0.3976814151,-0.3002218902
1,0.173978135,0.7486431003,-0.4170338809,-0.0866826996,0.001097316,0.8619186878,0.2989345789,-0.0286900066,0.6734773517
1,0.3625454605,0.8372147679,-0.3880234063,0.0930951163,0.0014123825,0.5714601874,-0.2069612294,-0.4825329185,-0.720476687
1,0.4954836071,0.7936388254,-0.4935969412,-0.0861672312,0.002016122,-0.023415545,0.2507831156,0.2217135131,0.3871425688
1,0.4923854172,0.869112432,-0.4144311845,0.0198025163,0.0022050445,0.8111215234,-0.2289756089,0.1580991596,0.3070863187
1,0.682158649,0.8211295009,-0.3410252631,0.098899506,0.0033613048,0.1132927015,0.5343011618,-0.075517334,-0.0181192942
1,0.7144827247,0.9352816939,-0.3451900482,0.1082991809,0.0047295992,-0.3556537926,0.4457697868,0.289498657,0.0879387483
1,0.6547793746,1.0373045206,-0.2801728845,0.12180911,-0.0012378115,0.3038417995,-0.199953869,0.234673202,-0.7815488577
1,0.6985659003,1.0059622526,-0.2343800217,-0.0658538565,-0.0020411743,-0.1804761887,0.1695017219,0.4853282273,0.295715034
0,0.6777701378,1.0297180414,-0.1514006108,-0.0924644023,-0.0112394784,0.0556031205,0.2383104265,0.033580374,0.7670186162
0,0.6915463805,1.0710645914,-0.1596489847,-0.2237515152,-0.0109116705,-0.1422482133,0.4989762902,0.2013872862,0.1920169145
1,0.6556165218,1.1828689575,-0.1219564229,-0.6671856642,-0.0093594091,-0.2735788226,0.3944613636,0.208708629,0.1094597802
1,0.6536877751,1.1849298477,-0.1198491827,-0.6787964106,-0.0056534167,0.4056659043,-0.3867924511,-0.2780273557,0.3009387553
1,0.6977108121,1.1400409937,-0.1607540697,-0.6011511683,-0.0070941881,-0.1165373921,0.1867478341,0.0188178867,0.1540323645
1,0.7295026779,1.1244692802,-0.1763884425,-0.5909420252,-0.0028182077,-0.7286413312,0.2900072932,0.1330781579,-0.3451426625
1,0.6108205318,1.1983710527,-0.1458942592,-0.6837399602,-0.0079459865,-0.1463576704,-0.7165698409,-0.8218665123,0.6343722939
1,0.5723708272,1.0352846384,-0.3381134272,-0.5247748494,-0.0081720836,-0.9703302979,0.4845307767,0.4149980545,0.9233967662
1,0.3598068953,1.1452038288,-0.2466455102,-0.3364866674,-0.014207745,-0.2832757831,0.2273329198,-0.5964950323,0.6689193249
1,0.00007305,0.0135115618,0.0132098924,0.0109967375,9.23516472539632E-06,-0.0410108678,0.0435247086,-0.1103836522,0.4880980551
1,-0.0101948269,0.0312116295,-0.0037738476,0.1372321397,-0.0002461871,-0.2714010775,-0.0778182819,0.2209003866,0.3986272216
1,-0.0599948093,0.0219443776,0.0409855321,0.2433141768,-0.0004192523,-0.9781643152,0.3458096385,-0.5639740229,0.6698228717
1,-0.2499353737,0.115773119,-0.0715375692,0.4216908216,-0.0001647317,-0.0375397764,0.4532409012,0.2349748313,-0.4382126033
1,-0.2662160397,0.2072102278,-0.023323454,0.3292602897,-0.0005758048,0.1572558135,0.3479962051,-0.1770920306,-0.2186972201
1,-0.2499984205,0.2596041262,-0.0163130723,0.2826226652,-0.0020981205,-0.4451988637,0.612770915,-0.7952978015,-0.0169652756
1,-0.3475684822,0.4179578424,-0.165437609,0.2853955626,-0.0032149528,-0.1742885709,-0.358189255,-0.4743348658,-0.2810214162
1,-0.3881305754,0.3533034027,-0.246501416,0.2079418153,-0.0033578677,0.0170934908,0.4601997137,-0.0526571423,-0.1233359724
1,-0.3886256218,0.4456110299,-0.2529694736,0.1914598048,-0.0036361725,-0.1804861575,-0.21468243,-0.1478946954,0.0937608704
1,-0.3941816688,0.458091259,-0.2445977181,0.2420496494,-0.0016684178,-0.2374767661,0.0856290162,-0.0977622569,-0.5519840717
1,-0.4466941953,0.4810876846,-0.2496206909,0.1151848659,-0.0014167505,0.1186570451,-0.2729239762,0.2454049438,0.1901270002
1,-0.4231262505,0.4371780157,-0.1906013042,0.1717632115,-0.0007707868,-0.3224622607,0.9230102897,0.2806984484,-0.5152270198
1,-0.5024134517,0.6407377124,-0.1217410937,0.0628991425,-0.0017386558,-0.4934741557,0.2480498254,0.4184075594,0.0645542219
1,-0.61440593,0.7150703073,-0.017966032,0.0818160176,-0.0032750559,-0.0278596263,0.9243375659,0.3418079317,-0.0733305663
1,-0.6262182593,0.8939623237,0.0519311354,0.0287681501,0.0024448149,-0.137296319,0.2654010653,-0.5118483305,0.0280817822
0,-0.6531609297,0.9421990514,-0.0230774358,0.0371892154,0.0013864255,-0.6353706717,0.7849326134,-0.116051577,0.2810424268
1,-0.8123216629,1.1238224506,-0.0659137368,-0.5817378163,0.0030656995,-0.0982667208,0.5645071864,-0.9648503661,0.7870818973
1,-0.837148726,1.2347328663,-0.3213083148,-0.4727509022,0.0082002608,0.3118246198,0.371483624,-0.913446188,0.3717371225
1,-0.7644079924,1.2599680424,-0.4911164641,-0.3772713244,0.0087733502,0.0633181334,0.3001642227,-0.172412917,-0.0172695555
1,-0.7578752041,1.2586581707,-0.5065191388,-0.3789456487,0.0081694452,0.2291547805,0.101163201,-0.728315115,-0.0030115047
1,-0.6979052424,1.2583380938,-0.639523983,-0.37613976,0.0089422017,-0.3111185431,0.343688786,-0.0646183193,-0.2260266691
1,-0.6975554228,1.2591466904,-0.6420117617,-0.3778669834,0.0107358964,0.7538096309,0.9446281791,-0.8579348922,0.7319476604
1,-0.5300586224,1.2618976831,-0.7686800361,-0.1864227355,0.0113973664,0.038194146,0.3179091811,-0.436871469,-0.2084129453
0,-0.5207061768,1.2627956867,-0.7890926003,-0.2308783978,0.0113235041,0.5793912411,0.277761966,-0.4136131704,-0.0980464742
0,-0.37589553,1.2614825964,-0.7991482615,-0.2522075176,0.0112959882,0.0942327008,0.3691005409,-0.7353926301,-0.3995717764
1,-0.3523557186,1.2631272078,-0.8807777166,-0.3455016911,0.011201215,0.0433274806,0.4040098488,-0.1342668086,-0.2540997267
1,-0.3494421244,1.2621787786,-0.869903326,-0.3786996305,0.0104452772,0.264431268,0.5839374065,-0.2327409685,-0.1726993322
1,-0.3321011662,1.2626371384,-0.8492553234,-0.4162550271,0.008184717,0.4210439026,0.775814414,0.8429549932,0.0288254637
1,-0.2270698696,1.2681494951,-0.6306507587,-0.4007536173,0.0093134046,0.2118162513,0.2614689469,-0.2491109669,-0.3543149829
1,-0.2159857601,1.2712609768,-0.6293004155,-0.414355129,0.0080512706,-0.0554718599,-0.6637921929,0.0399390683,-0.0519641563
1,-0.2225663811,1.1338510513,-0.6038707495,-0.4264667332,0.0079834517,0.2031276375,0.2962621152,-0.1512306184,0.3480834067
1,-0.2189150453,1.1435985565,-0.6239105463,-0.4164672196,0.0056291227,-0.6682555676,0.6379531622,-0.6252350211,0.9241784811
0,-0.3617733717,1.263597846,-0.7084411383,-0.1775911748,0.0051591815,-0.9081308246,0.5145395398,-0.8756324053,0.1419098377
0,-0.5888866186,1.26156497,-0.8184812665,-0.1349134296,0.0051724743,0.2058236599,0.8331933022,-0.7293971181,0.8544957638
1,-0.5374994278,1.2626168728,-0.8500537276,0.0935857743,0.0049635023,0.0094194366,0.1971822381,-0.1117326245,-0.2256630659
0,-0.53675735,1.2608029842,-0.8413460851,0.073787652,0.0042711478,-0.3977504075,0.6091723442,-0.697525084,-0.6605883837
0,-0.6362848878,1.2632542849,-0.8760469556,-0.0807487741,0.0040989006,-0.1399086863,0.5440071821,-0.50045228,-0.2099250853
1,-0.6714018583,1.2637102604,-0.8725171685,-0.1190714836,0.0041982424,-0.0172650088,-0.9122748971,-0.0587489605,-0.6808205247
1,-0.6736775041,1.0639673471,-0.8101854324,-0.2864243686,0.0046407157,-0.1764395237,0.3768517971,-0.2089664787,0.0280498639
0,-0.7153526545,1.1500003338,-0.8443337679,-0.2796005011,0.0040107565,-0.2342942059,-0.4060613513,-0.8549391627,0.822683394
1,-0.774014771,1.0622544289,-0.9088360667,-0.0621647537,0.0040501598,0.0471644625,0.3211395442,-0.3898073137,-0.1554539055
0,-0.7651738524,1.131289959,-0.9580285549,-0.1105163544,0.0040852595,0.2273613364,0.0909756646,-0.4081667662,-0.2318198532
1,-0.708407402,1.1663509607,-0.9196643233,-0.1596667469,0.0039369138,-0.0410714857,0.0925668553,-0.2542713881,-0.6227374673
1,-0.7178044319,1.1954044104,-0.8878118992,-0.3047755659,0.0039279708,-0.2642269433,0.5244178176,-0.3003015816,0.1600620747
1,-0.7573370934,1.2402445078,-0.9007172585,-0.2710575759,0.0044598621,-0.2138058543,0.8476471305,-0.0127519388,-0.7670124769
1,-0.8144890666,1.2618861198,-0.826156795,-0.4611589015,0.003395742,0.0624169372,-0.1613947749,-0.3378812075,-0.0666347519
1,-0.8096931577,1.2514405251,-0.8336511254,-0.4738325775,0.0028237933,0.1830389947,0.3998369575,-0.2449551225,-0.1389565021
1,-0.8000565767,1.2462166548,-0.835983336,-0.5021155477,0.0015341783,0.2823764384,-0.8760227561,0.3218997121,-0.9043213725
1,-0.7242173553,1.04129076,-0.718093574,-0.7299940586,0.0020509146,-0.3471697271,0.3132119477,-0.2559923828,-0.3957742751
0,-0.8064427972,1.1302955151,-0.7357867956,-0.8224330544,0.0013239136,-0.2787288427,-0.7361608148,-0.9536548853,0.7137033343
1,1.02352551039075E-05,0.0006205626,0.0016846329,-0.0002167403,3.20613730764308E-06,0.721078217,0.2949614525,0.1630037129,0.2095255852
1,0.1245068982,0.0821292549,0.0484597161,0.0567177609,-0.0002612401,0.3191168606,0.2721472085,0.1124018058,-0.340831697
1,0.1464034766,0.0862177089,0.0522848479,0.0340673998,-0.0003016298,0.3810463846,0.1404625028,-0.0330458768,-0.1712842733
1,0.1812054217,0.1178223714,0.0587496087,-0.0056215841,-0.0015564868,0.2958601713,0.1548240334,0.3586168289,-0.2915267646
1,0.2076898217,0.130198136,0.0703258067,-0.0423887745,-0.0019044172,0.272870183,0.1309039146,-0.0586759262,0.0130973877
1,0.2597088516,0.1652580798,0.0861048996,-0.0290083867,-0.0006049305,0.4824323952,0.2633535266,-0.127085641,0.0495645814
1,0.3309388161,0.2246650755,0.0658192113,-0.0097203422,-0.0010164699,0.1208294258,0.1452427059,0.0952277631,0.4269269109
1,0.363923192,0.2656203508,0.0895709023,0.107052058,0.0002272992,0.3935836554,0.057036683,0.1327117831,-0.0928865299
1,0.437353313,0.2874853909,0.1225508451,0.0884759352,0.000330595,0.5884053707,-0.8619366884,-0.2390705645,0.5654706955
1,0.5865648389,0.0807446539,0.0676154643,0.2372987866,0.0004970818,0.1301106662,0.4135070443,-0.4289925992,-0.4706668556
1,0.6103861332,0.163744241,0.0061225574,0.1229125634,0.0005734743,-0.9842301607,-0.8643121719,-0.5532153249,0.2652528882
1,0.3742580712,-0.0460940562,-0.1198107451,0.1923990548,-0.0002010087,0.1458923966,0.0528759919,0.2813339531,-0.2589572966
1,0.3754892647,-0.0441350825,-0.1033843607,0.1502195001,-0.0032172401,-0.0899695978,0.1237131059,-0.2130701095,0.2414699495
1,0.3738612235,-0.0260983538,-0.1125582233,0.2118451297,-0.0020088053,0.2865916491,-0.2023788244,-0.5231835246,0.7697716951
1,0.4219969213,-0.0551428646,-0.1853654236,0.4066641927,-0.0017929571,0.0176290926,0.7156687975,-0.3354741037,0.1561764032
1,0.4260425866,0.1195379421,-0.2344992012,0.4615752101,-0.0021051425,0.1753353775,-0.1954055578,0.0513164066,-0.0931784958
1,0.4543033838,0.0955478624,-0.2030886859,0.4497620165,-0.0022349572,0.00297631,-0.2925159037,-0.3059610426,0.376965791
1,0.4561806023,0.0434985943,-0.2240658998,0.5397362709,-0.0020001065,0.732673049,0.9096229672,0.4615072608,0.1319850385
1,0.6028723717,0.2451509833,-0.0990966186,0.5885083079,-0.0016843153,-0.2531354725,0.5461488962,-0.1569643617,-0.0384845436
1,0.5565459132,0.3755680621,-0.1038995683,0.5887793303,-0.0016854737,-0.1669552922,0.3538020551,-0.1860174984,0.3059663177
1,0.5334035158,0.4099217653,-0.123403877,0.639960587,-0.0013475234,0.1918010116,-0.0230295416,0.0163753778,-0.1947550625
1,0.5360101461,0.4323272109,-0.1098193899,0.6693390012,-0.0049338094,-0.2401198149,0.23000139,0.1359764636,0.1231906861
1,0.5161250234,0.4735070765,-0.0911713839,0.7185619473,-0.0039096428,-0.1058023572,-0.1353258789,-0.4082963467,-0.1031705886
1,0.4888299704,0.4548760951,-0.1594519764,0.688072741,-0.004773159,0.2244151086,-0.2110979706,0.3283151984,-0.9850157499
1,0.5419281125,0.4087128937,-0.0775775686,0.4394601882,-0.0037338841,-0.0883850604,-0.7160176635,-0.6037179828,0.5939605236
1,0.5182939172,0.2505727708,-0.1893680245,0.5863414407,-0.0043942807,0.1502479464,-0.0996391103,0.0069884183,0.0894329771
1,0.5414766073,0.2322991043,-0.179110378,0.6183024645,-0.0047750794,-0.1570159942,-0.2448561192,0.2771869898,-0.105353117
1,0.5437844992,0.2240668237,-0.1520900577,0.6063448787,-0.002573384,-0.2536243796,-0.0776134953,0.1046300158,0.1910155863
1,0.5193018317,0.2043424249,-0.1310731024,0.6374208331,-0.0020345056,0.86895895,-0.1163063794,-0.2934548259,0.978720665
1,0.7278856039,0.1824163944,-0.1694907844,0.8856552243,0.0005952663,-0.2892653346,0.112226218,-0.3553235531,-0.3867838085
1,0.6743223071,0.2117089331,-0.2120854706,0.7854666114,0.0011371386,0.069779247,0.3675319552,-0.0730842426,-0.1777523309
1,0.6825967431,0.2940426469,-0.2102652192,0.7576520443,0.0003704627,0.3453961611,0.2400061786,-0.1208917126,0.9621902108
1,0.7553685308,0.3609430194,-0.212605834,1.011985302,0.0001215289,-0.7263965011,0.1115579009,0.0935713649,0.0354696177
1,0.6005055308,0.3974814713,-0.161153838,1.0207464695,0.0001810465,0.533007741,-0.4215421081,0.0222670399,0.8037059903
1,0.7081038356,0.3018863201,-0.1448670924,1.2249031067,-0.0010061914,0.0340201408,0.1609178036,-0.0041427189,-0.0235509295
1,0.7192512751,0.314661175,-0.1457691044,1.2187697887,-0.0008789523,-0.3256419301,0.1697178185,0.0738917217,-0.0549004264
1,0.7167089581,0.3307105005,-0.1378203481,1.2151402235,0.0035103634,-0.3824030161,0.6268076301,-0.1348146349,0.4432341456
1,0.6319897175,0.4714404345,-0.1564303339,1.2525748014,0.0018035511,0.2020417452,0.6632035375,-0.8065187335,0.6545928121
1,0.6834311485,0.6444084644,-0.3097046912,1.2479799986,0.003564222,-0.2740720212,0.1887124181,-0.0997926742,0.3854115009
1,0.6700136662,0.6629867554,-0.3236472011,1.2507708073,0.0049130032,-0.4343182743,0.0163804162,-0.0842717364,0.5659614205
1,0.5859366059,0.6790217757,-0.3073117435,1.2482732534,0.0051792371,-0.2125823051,0.2436026186,-0.2552602589,0.7305864692
1,0.5398287773,0.7291068435,-0.3368329406,1.2502708435,0.0031982127,-0.0401382633,0.2307996452,-0.5245339274,-0.7543563247
1,0.5268993378,0.7908959985,-0.4068821073,1.0498325825,0.0019886922,-0.266967535,-0.0719186589,-0.0490164049,-0.3449709415
1,0.4608794749,0.7844554186,-0.3659799993,0.9715964198,0.0005496687,-0.7730428576,-0.7415837049,0.0836308971,-0.5973772407
1,0.3162066936,0.621397078,-0.3109271824,0.8186860085,0.000198854,0.3771601021,-0.2569768429,-0.0549959242,0.059405338
1,0.3621292114,0.5727345943,-0.2813262641,0.8426360488,-0.0006880866,-0.1149849966,-0.4181895852,-0.5624300838,0.377261132
1,0.3367640972,0.4762989283,-0.3874636889,0.9318558574,-0.0010410496,0.4023390114,-0.591072619,0.1906232536,-0.3942748308
1,0.3969999552,0.3774199486,-0.3161320388,0.8230867386,-0.0013867054,0.6849239469,0.5977629423,0.8698328137,-0.9515302181
1,0.5620399117,0.5351411104,-0.0840450376,0.5926132798,0.0004922122,-0.074084729,-0.0065536541,-0.2723250389,0.2334027737
1,0.5617921948,0.540786624,-0.0878761187,0.6416516304,0.002766832,0.2875407934,-0.0753450692,0.2809533775,-0.6772440672
1,1.26801378428354E-05,0.0005057383,0.0015729807,-0.0001892634,2.19356479647104E-06,-0.8464971185,0.9718200564,0.7246448994,0.7467508316
1,-0.1715064049,0.250674814,0.1860346496,0.1920119673,-6.55537369311787E-05,-0.1098851115,-0.8128926754,0.1128548756,-0.2910360992
1,-0.2001584619,0.0862431303,0.2192343026,0.1223620325,-0.0002233167,-0.5605044961,-0.7042777538,-0.212387383,0.7931149602
1,-0.3200064301,-0.0641759709,0.1760334224,0.3223260343,-0.0011305142,0.3198336959,0.3762728274,-0.1904146373,0.2404244393
1,-0.2740943134,0.0025629266,0.1437731534,0.3861748874,-0.002185843,0.1173432991,-0.6916621327,-0.6161087155,0.3960945308
1,-0.2436435819,-0.1262240857,0.020061627,0.4867827594,-0.0018651276,0.7150220275,0.4182427227,-0.2645676732,-0.0631380752
1,-0.1123516858,-0.0204292219,-0.0243992247,0.4861640334,-0.0019819208,0.4937111735,-0.2659266591,0.0008264154,0.1480190009
1,-0.0045932494,-0.0698221698,-0.0089139109,0.5267986655,-0.0006834148,0.9395294785,0.4021917582,0.5890462995,-0.4862871468
1,0.1947461218,0.04013687,0.142957747,0.4145016968,-0.0006636066,0.2424447089,-0.1210735068,-0.2168821841,0.0245352685
1,0.226063475,0.0329709165,0.135591045,0.4286501706,-0.0001698488,0.1275812089,-0.0234938357,-0.2867015302,-0.0585184805
1,0.2422229201,0.0275602974,0.1217862815,0.4181644917,0.0008524515,-0.4607554376,-0.1181687191,0.9503192902,-0.99822402
1,0.1575744748,0.0064289905,0.3145877123,0.1761539578,0.0008172675,-0.7162351012,-0.6235820651,-0.4990181625,0.8412140012
1,0.0159450546,-0.1156927273,0.2133659422,0.3890154362,0.0006749008,-0.177624315,-0.089926295,0.1640461981,-0.1874330342
1,-0.0114579955,-0.1327014565,0.2152038217,0.3503730595,-0.0002584561,0.0418857783,0.1193989441,0.0733534694,0.2718408704
1,-0.0194274243,-0.1305360347,0.2262295187,0.3643426597,-0.0032533074,0.29444924,-0.3009180427,-0.0954619125,-0.3256619275
1,0.0516917594,-0.198083967,0.210056141,0.2832567096,-0.0027137268,0.0369268134,0.322991997,0.2730430067,0.1120723262
1,0.0593122952,-0.1795361936,0.2278010845,0.3043315113,-0.0021860385,0.4349209964,-0.502271235,0.8447381258,-0.300744921
1,0.1587488949,-0.2691173255,0.4260481,0.2330166847,-0.0010933888,0.312972337,0.2158126384,-0.2544601262,-0.34836936
1,0.2215364277,-0.2226402909,0.384888351,0.1485645622,-0.0002986222,0.1376210749,0.2522633374,0.0248212982,-0.1225413531
1,0.2405839562,-0.1989459246,0.385325253,0.1161938161,0.0002979872,-0.9077603817,-0.4964553714,0.9226267934,0.5651621819
1,0.0461982973,-0.3159426153,0.6140369773,0.2610706389,-0.0005294102,-0.0972853079,0.2150554359,-0.256647408,-0.423571974
1,0.0229835641,-0.2641404271,0.5690357685,0.1564388573,-0.0008923577,-0.3917938769,0.0109164454,0.1268137842,-0.1258864105
1,-0.0436378308,-0.257266283,0.5967220068,0.1295353621,-0.0009322969,0.4011415243,0.2169093639,0.0112968031,-0.1441093087
1,0.0058358032,-0.209154278,0.6039387584,0.0992944688,-0.0018964119,0.1820544302,0.3010699153,0.034504015,0.1706000715
1,0.0451346561,-0.1493893415,0.6150101423,0.1510270834,-0.0010660061,0.0767791718,-0.0504994839,-0.1627815813,-0.0780059323
1,0.0545224398,-0.1397180408,0.6138598323,0.1479952931,-0.0011385212,-0.420810163,-0.6799216866,-0.5516296029,-0.07091555
1,-0.0490930639,-0.2998908758,0.4867972434,0.1324629039,-0.0018097396,0.1337057501,-0.0663670227,0.2145657241,0.1208744869
1,-0.0425656475,-0.3091000915,0.4941160083,0.1440226287,-0.0034086376,-0.1661267877,-0.4081048369,-0.0551148765,0.1034366861
1,-0.0741822347,-0.3805594742,0.4952504039,0.1724141836,-0.0038703941,0.1298694462,-0.1118173972,0.0324587785,0.2434305102
1,-0.0679908469,-0.4008862972,0.4945686758,0.1981855333,-0.0054737516,-0.0836181268,-0.0775592849,0.0145862317,0.0694616139
1,-0.0644392669,-0.4048839808,0.5001670122,0.2359588146,-0.0036349832,-0.1437916905,0.0674576089,0.2193786204,0.023053864
1,-0.0825285465,-0.4057374597,0.510850668,0.2250812799,-0.0033728648,0.8820704222,-0.9981848001,0.5630571842,-0.4227228165
1,0.1198897362,-0.5966864228,0.6541343927,0.1232745349,-0.0019219181,-0.0368201807,-0.0255485997,-0.0144924624,-0.1680309623
1,0.1222431511,-0.6141161919,0.6545404196,0.0904514864,-0.0001048932,0.2298594862,-0.1879568398,-0.2680338919,0.0444246233
1,0.1372577399,-0.6261050105,0.6396785378,0.114171043,-0.0015726698,-0.0694038719,0.046430029,0.0476063266,0.4271698892
0,0.1260096878,-0.617487669,0.6494123936,0.2322589904,-0.0014774879,0.0128639638,-0.4796040952,0.1965646297,-0.1936317086
0,0.1298777014,-0.6394389272,0.7060656548,0.1882281899,-0.0016047645,0.1805077642,-0.3762505352,-0.0381062329,0.2099868357
1,0.1768955886,-0.6372039318,0.7034145594,0.2449907362,-0.0017475135,0.0261950139,0.1775338203,-0.0137605313,-0.0567217804
1,0.1806880683,-0.6341981292,0.7052782178,0.2331599891,-0.0031129422,-0.372669965,0.0565245934,0.2327352464,0.0702830255
1,0.1146015376,-0.6172817349,0.7547303438,0.2553642392,-0.0033505948,-0.0399955772,-0.1541863382,-0.240003854,0.0360928066
0,0.1052630693,-0.6245584488,0.7516157627,0.2807112038,-0.0048612035,0.7296875119,-0.7097811699,-0.3737744987,-0.5726064444
1,0.2811485529,-0.6158583164,0.6656327248,0.1431958526,0.0459574871,0.3804944456,-0.0315531343,-0.0559891388,0.6469169855
1,0.2872444987,-0.6103979945,0.6623796821,0.3154089451,0.1271192282,-0.9501139522,0.6691204309,-0.3152472675,0.7664967179
1,0.0659169257,-0.4425911307,0.5941537619,0.5104137063,0.1259911358,0.1163673177,-0.3783019781,0.323561728,0.1305747926
1,0.0892705321,-0.5145139098,0.6602301002,0.5461531878,0.1259272248,-0.2077854276,0.2287746817,0.0205385853,0.1282058954
1,0.0807151496,-0.5102763772,0.6607816219,0.5620337725,0.1284011602,-0.1971294731,-0.2243110538,0.1330568641,0.0872281566
1,0.0524853021,-0.4958829284,0.6736731529,0.5923501849,0.1286868304,-0.1284589767,-0.0472863019,-0.0621407852,-0.1907648146
1,0.0351742432,-0.5185249448,0.6822350025,0.5827430487,0.1295479685,0.1412463486,0.3828246891,0.3366822004,-0.9247221947
1,0.0635618195,-0.4396645725,0.747143805,0.358769238,0.1301677376,0.1246774495,0.5987550616,0.3106262982,-0.7839714885
1,0.0920575559,-0.3083997071,0.8164403439,0.1675503403,0.1308749169,-0.1045151278,0.024092013,-0.0051971641,-0.1038830653
1,0.00001031,0.0003877453,0.0013458864,-0.0001526706,1.71860904174537E-06,-0.9762616158,-0.1527502835,-0.1244645193,-0.5790349245
1,-0.2033151537,-0.0321877412,-0.0224942435,-0.141448155,-0.0001066964,0.095809117,-0.0796503723,0.3067367673,-0.167950213
1,-0.2142175436,-0.0370733514,-0.0097902901,-0.1680443585,-0.0038442912,0.6210018992,0.2995516062,-0.3180470169,-0.1301475167
1,-0.093559362,0.0429099575,-0.0680622011,-0.1965326667,-0.0039072414,-0.0972721428,0.0931080133,-0.0860455781,-0.0750400051
1,-0.0767200738,0.0529028662,-0.0796799958,-0.2153013796,-0.0007898769,-0.3395517468,-0.2876963615,0.6363405585,0.9470332861
1,-0.1600008756,-0.0050046812,0.0676365346,0.025737768,-0.0019656688,-0.7254659534,-0.6547440886,-0.4918113649,0.5546121597
1,-0.2822830379,-0.1367377192,-0.0328542739,0.1681443155,-0.0017103354,-0.7054157257,0.1150091439,-0.6495431066,-0.534534812
1,-0.4344279468,-0.1052778065,-0.1657872796,0.0358607136,-0.0029170334,0.1051856056,0.2980981469,-0.9308079481,-0.2430668026
1,-0.4086718559,-0.0277994089,-0.3442522883,-0.0252683368,-0.0027275921,-0.1811706871,-0.3934030235,0.2182694525,0.5479121208
1,-0.4433166087,-0.0935622379,-0.2986862659,0.1250613928,-0.0028377792,0.3653617501,-0.1944983155,-0.2208057642,-0.1664835811
1,-0.3847032189,-0.1339443773,-0.3211379647,0.0824652538,-0.0024034199,0.4679196775,0.0258462727,0.2944963872,0.2480932176
1,-0.2962422967,-0.1266106814,-0.2576618493,0.1535903662,-0.0021312339,-0.1176416948,-0.4409361482,0.4221744835,-0.3118510544
1,-0.3163495362,-0.2022788972,-0.1645395756,0.078333281,-0.001778487,-0.0506422296,0.4732533097,-0.0746945441,0.0332317799
1,-0.3291552067,-0.0910671949,-0.168640852,0.0982781798,-0.0021692708,0.2518420219,-0.0424307026,0.2824056745,0.2439916283
1,-0.3001955152,-0.0912698433,-0.1354219764,0.1686016619,-0.0031687596,0.542616725,0.6468328238,-0.2082006037,0.3228598535
1,-0.1753591448,0.0683076978,-0.1577144712,0.2602195442,-0.0023098949,0.0130563397,-0.240704298,-0.5848406553,-0.2096564174
1,-0.1714019775,0.0110029411,-0.3011156321,0.2042571008,-0.0019255998,0.8080760241,0.3030632436,-0.064666301,0.7937588096
1,0.0072829244,0.0961674526,-0.2735114992,0.4163422287,-0.0011421025,0.7831828594,0.6624850035,-0.6703372002,-0.778753221
1,0.1547641307,0.2666184008,-0.3870427012,0.23769252,-0.0012387551,0.8133417368,-0.462815702,-0.7483209968,-0.3325192034
1,0.3486958742,0.1549002975,-0.5773956776,0.1483577341,0.000103638,-0.3154172301,0.4892803729,0.3992904425,-0.2156073898
1,0.3009410501,0.2417183369,-0.5114598274,0.0865511373,0.0014209595,-0.1937819719,0.1495164484,-0.2103317529,-0.1721811146
1,0.2773194015,0.2783384919,-0.4858849049,0.1387940943,0.0020243975,-0.5521336198,-0.466588527,0.4476814866,0.5838649273
1,0.1789563745,0.1985544711,-0.3698848784,0.3059567809,0.0017386035,-0.8421604037,0.7446993589,0.8257633448,0.3673583269
1,-0.0110445218,0.3946814239,-0.1415288895,0.4078006446,0.0008160665,-0.8105381131,0.0042685564,0.2840434015,-0.7167165875
1,-0.1625010222,0.4052351415,-0.0591427945,0.2346554995,0.0005989735,0.5022450686,0.3789575994,-0.240957126,-0.2510372102
1,-0.040535979,0.5092038512,-0.098937124,0.1768280715,0.0019202846,0.1877933741,0.3835018575,0.5385224223,0.5270295739
1,0.0070760185,0.6169812083,0.0363955423,0.315397501,0.00242911,-0.173619017,0.04121425,-0.1612195522,-0.0407202058
1,0.0041390345,0.621188283,0.0361120664,0.3184235692,0.0047173761,0.9345020056,-0.3590273261,0.8623896241,0.9289980531
1,0.1895623505,0.5416347384,0.2472405285,0.5521151423,0.0047065387,0.6775089502,0.3769362569,-0.5368983746,0.7292791009
1,0.354627043,0.6432465911,0.1273839176,0.7329995036,0.0064876433,-0.0026952559,0.1109051257,-0.2694784701,0.2135847211
1,0.3561805487,0.6596921682,0.1024134606,0.796161592,0.0067584589,0.1046562269,0.0138786929,-0.0027724486,-0.1071976125
1,0.3637610972,0.6691792607,0.0982398018,0.766071856,0.0057684807,0.2084402293,0.0030745973,-0.1835135221,0.0914187431
1,0.384329915,0.6755103469,0.0898419246,0.7948071957,0.00465497,-0.0772448555,-0.1647072434,-0.1337635815,0.1942587346
1,0.3902453184,0.6664729118,0.0787743405,0.8351963758,0.0066912887,0.364089787,-0.9602479339,-0.0497362018,0.3978150189
1,0.4827756286,0.4595498741,0.0713775456,0.9332584739,0.0078860624,0.115770258,0.2083182335,-0.0585262142,0.2854657769
1,0.4885827005,0.4554753602,0.063121587,0.9494979978,0.0072783385,0.933426857,-0.9153324366,-0.1135575026,-0.8793780208
1,0.695483923,0.2563778758,0.043214526,0.7325696349,0.0073389178,-0.3942711353,-0.0129195983,0.4326450825,-0.5720863938
1,0.6464655995,0.2581961155,0.1282253563,0.5932891369,0.0090240277,0.2519310117,0.7614244223,0.8366363049,-0.3693457544
1,0.7039090395,0.4413211942,0.3070596159,0.5083695054,0.0099594649,0.3060680926,0.2742195129,-0.2236352116,0.1652549803
1,0.7158434391,0.462934345,0.3098225594,0.5336523652,0.0083950236,0.249754414,0.0272365473,-0.2255041152,0.0686288252
1,0.7517880201,0.4923840463,0.2878024578,0.5580873489,0.0083027985,0.3976055682,0.1954378039,-0.0704446808,0.2532967329
1,0.8447005153,0.5470543504,0.2766288817,0.622641623,0.0096123246,0.3531508148,0.8503483534,-0.7211034894,-0.5147244334
1,0.931208849,0.7574543357,0.1264063865,0.5014320612,0.0096371565,-0.9566301107,0.8674938679,-0.3082028031,0.6846901774
1,0.7282029986,0.9254248738,0.0133618638,0.6523541808,0.0086778169,0.0481574759,0.1475811303,-0.3648041487,0.2956538796
1,0.7368217707,0.943079412,-0.0654553995,0.7689524889,0.0115856528,0.3617808819,-0.099426046,-0.25529778,0.4258276522
1,0.79229635,0.9024338126,-0.1423818916,0.9077270031,0.0066903718,0.3383500576,0.3554130495,-0.0020655221,0.3034406006
1,0.8454598188,0.9170740843,-0.2014254034,0.9612883329,0.0028370749,0.5635439157,-0.6731472611,0.2621484101,0.6983783841
1,0.9764341116,0.7643087506,-0.1232347712,1.1339603662,0.0048919003,-0.2616468072,0.9271712303,-0.2682740092,0.2708937824
1,0.9146430492,0.9422302842,-0.2101323307,1.2380168438,0.010692683,0.2738697827,0.2128581405,0.0356462412,0.6824061871
1,0.9244355559,0.9575277567,-0.22105968,1.2518941164,0.0090061473,0.2757424116,0.1776158512,-0.0827593952,0.6432298422
1,-0.000007229,0.0002369961,0.0009566126,-0.0001015075,3.42336102221452E-06,0.6963207126,0.3685475886,0.8453568816,-0.3065277934
1,0.1206630319,0.100621812,0.1985799968,-0.0699650496,-0.0003469601,0.2317537814,0.7221899629,0.3905726671,-0.1598558277
1,0.1794799119,0.2816266716,0.2979858518,-0.1027328372,-3.36755292664748E-05,0.0820490718,0.0083259838,-0.5677269697,-0.0403583311
1,0.1973320246,0.2918182015,0.21287781,-0.1102102846,0.0001892385,0.3973439634,-0.2924692035,-0.5179619789,-0.239349246
1,0.2571499348,0.2436248362,0.1305723339,-0.1692981869,-0.0003147122,-0.6319802999,-0.0471542291,-0.496448487,-0.1403176934
1,0.1669866443,0.2384299189,0.025923159,-0.201219961,5.44858085049782E-05,0.0238343421,-0.3332713842,-0.6523712873,-0.2535093427
1,0.1656215042,0.1738941222,-0.0837002695,-0.2637114227,-0.0005481346,0.2862099707,0.4523591995,-0.2555963695,-0.3119662404
1,0.2164669335,0.239424929,-0.13321729,-0.341716677,-0.0004547241,-0.0277236141,0.173872605,0.030298993,-0.5152289867
1,0.2131703496,0.2915178239,-0.1183848381,-0.4431813955,-0.0004435926,-0.3528151214,0.5104728937,-0.3969774246,-0.0731504932
1,0.1578050554,0.3785625994,-0.1849699616,-0.4590803981,0.0002664624,0.2149087638,0.3633223474,-0.2058316618,-0.1233834922
1,0.1487478316,0.4214337468,-0.2007353455,-0.4779858291,-0.0027581947,-0.4927735329,0.6006940603,-0.9000326395,-0.5817533135
1,0.0568558015,0.5798377991,-0.3807959259,-0.6201833487,-0.0028713222,-0.6290548444,-0.2480132729,-0.0302927326,-0.2224930823
1,-0.0818392038,0.5271648765,-0.3835236132,-0.6732256413,-0.0036626344,1,0.3869617581,0.0449601002,0.0352783874
1,0.1323852986,0.6343160272,-0.3651721478,-0.6614559293,-0.0036189666,-0.9967961907,0.194597438,-0.6230760813,0.6599250436
1,-0.0802512243,0.6929861307,-0.5044313073,-0.4938934445,-0.0037605802,-0.5425213575,0.3114596903,0.4772123396,0.4094357789
1,-0.2031776011,0.7855165601,-0.389706105,-0.3823073208,-0.0048047812,0.4496175647,0.0944062844,-0.5869022012,-0.9149301648
1,-0.0976863131,0.817741394,-0.5154497623,-0.6089826822,-0.0037855017,-0.1578260213,0.5349060297,-0.2241004705,0.0953019634
1,-0.1297849417,0.9232179523,-0.5549961925,-0.5800466537,-0.0041647558,-0.6559909582,-0.6032505035,-0.063355647,0.9891427755
1,-0.2793672085,0.7885662913,-0.5475127101,-0.3292865157,-0.0046331142,0.7814831138,0.5364899635,0.2431717068,-0.90054214
1,-0.0953091681,0.9362130165,-0.4771400988,-0.5508696437,-0.0035056458,0.1983682066,-0.2172028124,-0.3714588881,0.0283137839
1,-0.0495906025,0.9013329744,-0.5335405469,-0.5425676107,-0.0025991369,0.3558714688,0.4622204006,-0.6277807355,-0.8474375606
1,0.0434281789,1.0279296637,-0.6500165462,-0.7486400604,-0.0016360868,0.119871892,0.7832941413,0.2112198174,0.0460708365
1,0.0737586394,1.239372015,-0.5751369596,-0.7309422493,-0.0016167582,-0.6598736048,-0.8717196584,0.0709063709,0.57064116
1,-0.09463045,1.0328421593,-0.54591465,-0.5852197409,-0.0027929889,0.7263997197,0.2344416678,-0.5915299058,-0.9203001261
1,0.0661529079,1.1019821167,-0.6532620192,-0.8115001917,-0.0022769743,0.290971607,-0.4598478675,-0.0124786049,0.0548191741
1,0.1300881356,1.0192317963,-0.6302059293,-0.7965070009,-0.0015878115,0.1585205942,0.0232513938,0.1518798918,0.1109832153
1,0.1434822083,1.0050731897,-0.6242981553,-0.786416173,-0.0018916221,0.1870644838,-0.0120859081,0.0052774013,0.1990871131
1,0.1573500335,1.0129369497,-0.6194596291,-0.7633242011,-0.0022864088,-0.2633647621,-0.2489871979,-0.2306123823,-0.1599779725
1,0.1732214242,1.0114371777,-0.6106294394,-0.7233237028,0.0014090375,-0.2696627975,-0.1063019335,0.0947624072,0.0708348751
1,0.1387316883,0.9920532703,-0.6203722954,-0.7119543552,0.0021420862,0.8477517366,0.1583819091,0.6821696758,0.1164390221
1,0.2977374196,1.0460237265,-0.4475367963,-0.678160429,0.0020372514,-0.0974237099,-0.2486258,-0.2109532654,0.0705343485
1,0.3189441562,1.0372540951,-0.4533321261,-0.648429215,0.0056461594,0.0425411351,-0.4447228312,0.2565865815,0.3205839396
1,0.3168880641,0.9507131577,-0.4178451896,-0.5630095005,0.0052437061,0.6462771893,-0.9325103164,0.4540274739,0.5770050287
1,0.4813649654,0.7502253056,-0.3015419841,-0.4168308377,0.0066761109,-0.7087965012,-0.2414788455,-0.0559017062,0.0600918904
1,0.3282564878,0.7005022168,-0.3090241551,-0.397962898,0.0061751562,-0.3202896416,-0.8520616293,-0.0552615784,0.0941623673
1,0.243661195,0.5202863812,-0.316706121,-0.3730038404,0.0054943166,-0.4335291386,-0.1755787432,-0.2549266517,-0.1776637882
1,0.1809312105,0.4858463109,-0.3613366485,-0.4166139364,0.0060383542,-0.0501856282,0.3715293109,-0.3298726976,0.7582913637
1,0.1658212841,0.5899130106,-0.4222025275,-0.2223565578,0.0057329177,-0.8567227721,-0.7421100736,0.4502894878,-0.6248914003
1,-0.0146069322,0.4203444123,-0.3088009655,-0.3773064613,0.0056728907,-0.2399111688,0.3220191002,0.4439680576,0.174256891
1,-0.0731629059,0.4875047207,-0.2272243947,-0.3266236484,0.0041469741,-0.1250205636,0.4469438195,0.1105174124,0.6327482462
1,-0.1041199192,0.6115534902,-0.1906454116,-0.1623902023,0.0039144997,-0.8783823848,0.0738436803,-0.1582729518,-0.1552831978
1,-0.3025962114,0.6403928995,-0.2227328867,-0.1973882169,0.0031451383,0.1113451794,0.5155730844,0.1244954914,0.2262910157
1,-0.2918294966,0.7350009084,-0.1991443485,-0.1337241083,0.0019036181,0.0659213588,-0.1051073521,-0.0525123328,-0.3264017999
1,-0.2795484364,0.756746769,-0.1894460022,-0.1207004711,0.0015798039,0.5173083544,-0.4644603729,-0.3923468888,-0.6707194448
1,-0.1702215374,0.659940064,-0.272588104,-0.2870447934,0.0023306203,0.5625572801,0.4709568322,-0.1644047648,-0.0829952285
1,-0.0990127847,0.7308370471,-0.3036281765,-0.3081691265,0.0015641751,0.7979642153,-0.178478986,-0.3497574925,-0.0479245186
1,0.0694858879,0.7005748153,-0.3762438595,-0.3157074153,0.0020828475,0.0080232453,0.1491018087,-0.3114362359,-0.4620254338
1,0.0816697404,0.7393029332,-0.4342859983,-0.4299830496,0.0031491732,-0.8238890767,-0.5252018571,-0.7207813859,0.4796378016
1,-0.0917563066,0.6128858328,-0.621512413,-0.3127911687,0.0032980214,0.7451146245,0.6019158959,-0.3271112144,-0.0878557786
1,0.0764480159,0.7785933614,-0.6547191143,-0.3286810219,0.0040732203,0.3366532326,0.1943909377,-0.200181976,0.1098945364
1,0.000015456,0.0005472378,0.0016122482,-0.0001999094,0.00000202,-0.0820460469,-0.9596679211,-0.3548576832,0.6206865907
1,-0.0207723863,-0.1814634651,-0.074575007,0.1612775624,-0.000046531,-0.4635750055,0.8947256207,-0.4779600501,0.4489307106
1,-0.1274653971,-0.004735467,-0.1670823842,0.2851634026,-0.0010870059,0.0234550517,0.998345077,0.7212637663,0.7253474593
1,-0.1217919439,0.2466363013,0.013013497,0.4979632795,-0.0013359444,-0.531893611,0.2463786155,0.0357026719,-0.1458888203
1,-0.2436067611,0.3166679144,0.0374085158,0.4709229469,-0.0020777108,-0.9477120042,-0.6519970298,-0.3793887198,0.7452887297
1,-0.4357517064,0.1616671234,-0.0370289348,0.6674531698,-0.0016153356,-0.3643286526,-0.2911614776,0.0157706458,0.9769029617
1,-0.5169143081,0.1093943864,-0.026265515,0.9368812442,-0.0029512863,-0.0551743694,0.3098230064,0.1055147573,-0.1518266797
1,-0.5291829109,0.1251261085,-0.0196134467,0.8877769113,-0.004588055,-0.8124423623,-0.8570789695,-0.151971221,0.2116490006
1,-0.7203681469,-0.0501655303,-0.0462867655,0.9446181059,-0.0051744822,-0.1863993257,0.1170942485,-0.1025060639,0.1543175429
1,-0.7578388453,-0.0348548256,-0.0578159429,0.9867856503,-0.007748852,0.018674165,-0.1428177953,-0.1869764179,-0.0182304233
1,-0.7617362738,-0.0282787476,-0.0614590161,0.9942435026,-0.0109484997,0.0928617492,0.2498214096,0.1667532772,0.2476148307
1,-0.7465934753,-0.0191766601,-0.0613461286,1.00532794,-0.012160724,0.2640942633,0.3324617743,0.2529861331,-0.13601695
1,-0.7368977666,0.0207901634,-0.0337811336,1.0635699034,-0.0141959619,-0.8715001345,-0.6186642051,-0.0850140601,-0.7000130415
